;FLAVOR:Marlin
;TIME:3455
;Filament used: 2.78904m
;Layer height: 0.2
;MINX:78.6
;MINY:77.613
;MINZ:0.2
;MAXX:131.4
;MAXY:132.387
;MAXZ:28.4
;Generated with Cura_SteamEngine main
M140 S60
M105
M190 S60
M104 S200
M105
M109 S200
M82 ;absolute extrusion mode
G21 ;metric values
G90 ;absolute positioning
M82 ;set extruder to absolute mode
M107 ;start with the fan off
G28 X0 Y0 ;move X/Y to min endstops
G28 Z0 ;move Z to min endstops
G1 Z15.0 F100 ;move the platform down 15mm
G92 E0 ;zero the extruded length
G1 F200 E3 ;extrude 3mm of feed stock
G92 E0 ;zero the extruded length again
G1 F100
G0 Y20 F100
M117 Printing...
G5
G92 E0
G92 E0
G1 F2400 E-6
;LAYER_COUNT:142
;LAYER:0
M107
M204 S3000
M205 X10 Y10
G1 F600 Z0.275
G0 F3000 X80.533 Y79.448 Z0.275
G1 F600 Z0.2
G0 F3000 X78.601 Y84.6
M204 S1800
M205 X8 Y8
;TYPE:SKIRT
G1 F2400 E0
G1 X78.61 Y83.935 E0.03097
G1 X78.659 Y83.222 E0.06425
G1 X78.788 Y82.518 E0.09757
G1 X78.995 Y81.834 E0.13085
G1 X79.277 Y81.176 E0.16418
G1 X79.63 Y80.554 E0.19749
G1 X80.05 Y79.976 E0.23076
G1 X80.533 Y79.448 E0.26408
G1 X81.071 Y78.977 E0.29737
G1 X81.659 Y78.569 E0.3307
G1 X82.288 Y78.229 E0.36399
G1 X82.952 Y77.962 E0.39732
G1 X83.641 Y77.77 E0.43062
G1 X84.488 Y77.633 E0.47057
G1 X85.33 Y77.613 E0.50979
G1 X124.293 Y77.613 E2.32407
G1 X125.083 Y77.624 E2.36086
G1 X125.796 Y77.674 E2.39414
G1 X126.5 Y77.803 E2.42747
G1 X127.184 Y78.011 E2.46076
G1 X127.841 Y78.293 E2.49405
G1 X128.463 Y78.647 E2.52738
G1 X129.041 Y79.068 E2.56067
G1 X129.569 Y79.551 E2.59399
G1 X130.039 Y80.089 E2.62726
G1 X130.447 Y80.677 E2.66058
G1 X130.786 Y81.307 E2.6939
G1 X131.053 Y81.97 E2.72718
G1 X131.244 Y82.66 E2.76052
G1 X131.38 Y83.51 E2.8006
G1 X131.4 Y84.343 E2.8394
G1 X131.4 Y125.33 E4.74793
G1 X131.391 Y126.057 E4.78178
G1 X131.342 Y126.771 E4.81511
G1 X131.214 Y127.475 E4.84842
G1 X131.008 Y128.16 E4.88173
G1 X130.727 Y128.817 E4.915
G1 X130.374 Y129.44 E4.94835
G1 X129.954 Y130.019 E4.98165
G1 X129.472 Y130.547 E5.01494
G1 X128.935 Y131.019 E5.04823
G1 X128.347 Y131.427 E5.08156
G1 X127.718 Y131.768 E5.11488
G1 X127.055 Y132.036 E5.14818
G1 X126.366 Y132.228 E5.18148
G1 X125.514 Y132.367 E5.22168
G1 X124.67 Y132.387 E5.26099
G1 X85.624 Y132.386 E7.07913
G1 X84.926 Y132.377 E7.11164
G1 X84.213 Y132.328 E7.14492
G1 X83.509 Y132.2 E7.17824
G1 X82.824 Y131.994 E7.21154
G1 X82.167 Y131.712 E7.24484
G1 X81.545 Y131.359 E7.27814
G1 X80.966 Y130.939 E7.31144
G1 X80.437 Y130.457 E7.34477
G1 X79.966 Y129.919 E7.37806
G1 X79.558 Y129.332 E7.41135
G1 X79.218 Y128.702 E7.44469
G1 X78.95 Y128.039 E7.47798
G1 X78.758 Y127.35 E7.51129
G1 X78.618 Y126.485 E7.55209
G1 X78.6 Y125.645 E7.59121
G1 X78.601 Y84.6 E9.50244
M204 S3000
M205 X10 Y10
G0 F3000 X79.161 Y84.608
M204 S1800
M205 X8 Y8
G1 F2400 X79.17 Y83.943 E9.53341
G1 X79.219 Y83.262 E9.5652
G1 X79.347 Y82.59 E9.59706
G1 X79.553 Y81.939 E9.62885
G1 X79.834 Y81.316 E9.66067
G1 X80.185 Y80.73 E9.69248
G1 X80.603 Y80.189 E9.72432
G1 X81.08 Y79.701 E9.75609
G1 X81.612 Y79.272 E9.78791
G1 X82.19 Y78.907 E9.81975
G1 X82.807 Y78.613 E9.85157
G1 X83.453 Y78.393 E9.88335
G1 X84.121 Y78.25 E9.91516
G1 X84.966 Y78.173 E9.95467
G1 X124.293 Y78.173 E11.7859
G1 X125.075 Y78.184 E11.82231
G1 X125.756 Y78.233 E11.85411
G1 X126.427 Y78.362 E11.88592
G1 X127.078 Y78.569 E11.91773
G1 X127.701 Y78.85 E11.94956
G1 X128.287 Y79.202 E11.98139
G1 X128.827 Y79.62 E12.01318
G1 X129.315 Y80.098 E12.04499
G1 X129.744 Y80.63 E12.07681
G1 X130.108 Y81.208 E12.10862
G1 X130.402 Y81.825 E12.14045
G1 X130.621 Y82.472 E12.17225
G1 X130.764 Y83.14 E12.20406
G1 X130.84 Y83.981 E12.24338
G1 X130.84 Y125.323 E14.16844
G1 X130.831 Y126.05 E14.20229
G1 X130.782 Y126.732 E14.23413
G1 X130.654 Y127.403 E14.26594
G1 X130.449 Y128.055 E14.29777
G1 X130.169 Y128.678 E14.32957
G1 X129.819 Y129.264 E14.36135
G1 X129.402 Y129.806 E14.3932
G1 X128.925 Y130.295 E14.425
G1 X128.394 Y130.724 E14.45679
G1 X127.816 Y131.089 E14.48862
G1 X127.2 Y131.384 E14.52043
G1 X126.553 Y131.605 E14.55226
G1 X125.885 Y131.749 E14.58408
G1 X125.035 Y131.827 E14.62383
G1 X85.632 Y131.827 E16.4586
G1 X84.934 Y131.818 E16.4911
G1 X84.252 Y131.769 E16.52294
G1 X83.581 Y131.641 E16.55475
G1 X82.93 Y131.435 E16.58654
G1 X82.306 Y131.155 E16.61839
G1 X81.72 Y130.804 E16.6502
G1 X81.179 Y130.387 E16.682
G1 X80.69 Y129.909 E16.71384
G1 X80.261 Y129.378 E16.74563
G1 X79.896 Y128.8 E16.77746
G1 X79.602 Y128.184 E16.80924
G1 X79.381 Y127.537 E16.84108
G1 X79.237 Y126.869 E16.8729
G1 X79.16 Y126.014 E16.91287
G1 X79.161 Y84.608 E18.84091
M204 S3000
M205 X10 Y10
G0 F3000 X79.72 Y84.616
M204 S1800
M205 X8 Y8
G1 F2400 X79.729 Y83.951 E18.87188
G1 X79.778 Y83.303 E18.90214
G1 X79.906 Y82.666 E18.93239
G1 X80.111 Y82.049 E18.96267
G1 X80.391 Y81.463 E18.99291
G1 X80.74 Y80.915 E19.02316
G1 X81.154 Y80.414 E19.05342
G1 X81.626 Y79.968 E19.08366
G1 X82.149 Y79.584 E19.11387
G1 X82.716 Y79.266 E19.14415
G1 X83.317 Y79.02 E19.17438
G1 X83.944 Y78.85 E19.20463
G1 X84.956 Y78.733 E19.25207
G1 X124.293 Y78.733 E21.08377
G1 X125.067 Y78.744 E21.11981
G1 X125.714 Y78.793 E21.15002
G1 X126.351 Y78.921 E21.18028
G1 X126.967 Y79.127 E21.21052
G1 X127.554 Y79.407 E21.24081
G1 X128.101 Y79.756 E21.27102
G1 X128.602 Y80.17 E21.30128
G1 X129.047 Y80.643 E21.33152
G1 X129.432 Y81.167 E21.3618
G1 X129.749 Y81.734 E21.39205
G1 X129.994 Y82.335 E21.42227
G1 X130.163 Y82.962 E21.45251
G1 X130.28 Y83.97 E21.49976
G1 X130.28 Y125.316 E23.425
G1 X130.271 Y126.043 E23.45886
G1 X130.223 Y126.691 E23.48911
G1 X130.095 Y127.328 E23.51937
G1 X129.891 Y127.945 E23.54963
G1 X129.612 Y128.532 E23.57989
G1 X129.264 Y129.08 E23.61012
G1 X128.851 Y129.581 E23.64035
G1 X128.379 Y130.028 E23.67062
G1 X127.856 Y130.413 E23.70086
G1 X127.29 Y130.731 E23.73109
G1 X126.688 Y130.978 E23.76139
G1 X126.062 Y131.148 E23.7916
G1 X125.045 Y131.267 E23.83927
G1 X85.639 Y131.267 E25.67418
G1 X84.941 Y131.258 E25.70669
G1 X84.293 Y131.209 E25.73695
G1 X83.656 Y131.082 E25.76719
G1 X83.04 Y130.877 E25.79742
G1 X82.453 Y130.598 E25.82769
G1 X81.905 Y130.249 E25.85794
G1 X81.404 Y129.836 E25.88817
G1 X80.957 Y129.364 E25.91844
G1 X80.572 Y128.841 E25.94868
G1 X80.254 Y128.274 E25.97895
G1 X80.008 Y127.673 E26.00919
G1 X79.838 Y127.046 E26.03944
G1 X79.72 Y126.026 E26.08725
G1 X79.72 Y84.616 E28.01548
M204 S3000
M205 X10 Y10
G1 F2400 E22.01548
;MESH:trns_3.stl
G0 F3000 X84.335 Y84.616
G0 X85.42 Y84.616
G0 X86.4 Y85.413
M204 S1800
M205 X8 Y8
;TYPE:WALL-INNER
G1 F2400 E28.01548
G1 F1500 X86.4 Y124.587 E29.83958
G1 X123.6 Y124.587 E31.57177
G1 X123.6 Y85.413 E33.39588
G1 X86.4 Y85.413 E35.12806
M204 S3000
M205 X10 Y10
G0 F3000 X85.84 Y84.853
M204 S1800
M205 X8 Y8
G1 F1500 X85.84 Y125.147 E37.00432
G1 X124.16 Y125.147 E38.78866
G1 X124.16 Y84.853 E40.66492
G1 X85.84 Y84.853 E42.44926
M204 S3000
M205 X10 Y10
G0 F3000 X85.28 Y84.293
M204 S1800
M205 X8 Y8
;TYPE:WALL-OUTER
G1 F1500 X85.28 Y125.707 E44.37767
G1 X124.72 Y125.707 E46.21416
G1 X124.72 Y84.293 E48.14257
G1 X85.28 Y84.293 E49.97906
M204 S3000
M205 X10 Y10
G0 F3000 X85.28 Y84.493
G0 X85.87 Y84.883
G0 X86.94 Y85.953
M204 S1800
M205 X8 Y8
;TYPE:SKIN
G1 F1500 X86.94 Y104.013 E50.82001
G1 X86.94 Y124.047 E51.75288
G1 X123.06 Y124.047 E53.43477
G1 X123.06 Y85.953 E55.20859
G1 X86.94 Y85.953 E56.89049
M204 S3000
M205 X10 Y10
G0 F3000 X122.779 Y86.349
M204 S1800
M205 X8 Y8
G1 F1500 X122.663 Y86.233 E56.89813
M204 S3000
M205 X10 Y10
G0 F3000 X121.871 Y86.233
M204 S1800
M205 X8 Y8
G1 F1500 X122.779 Y87.141 E56.95792
M204 S3000
M205 X10 Y10
G0 F3000 X122.779 Y87.933
M204 S1800
M205 X8 Y8
G1 F1500 X121.079 Y86.233 E57.06987
M204 S3000
M205 X10 Y10
G0 F3000 X120.287 Y86.233
M204 S1800
M205 X8 Y8
G1 F1500 X122.779 Y88.725 E57.23397
M204 S3000
M205 X10 Y10
G0 F3000 X122.779 Y89.517
M204 S1800
M205 X8 Y8
G1 F1500 X119.495 Y86.233 E57.45023
M204 S3000
M205 X10 Y10
G0 F3000 X118.703 Y86.233
M204 S1800
M205 X8 Y8
G1 F1500 X122.779 Y90.309 E57.71864
M204 S3000
M205 X10 Y10
G0 F3000 X122.779 Y91.101
M204 S1800
M205 X8 Y8
G1 F1500 X117.911 Y86.233 E58.03921
M204 S3000
M205 X10 Y10
G0 F3000 X117.119 Y86.233
M204 S1800
M205 X8 Y8
G1 F1500 X122.779 Y91.893 E58.41193
M204 S3000
M205 X10 Y10
G0 F3000 X122.779 Y92.685
M204 S1800
M205 X8 Y8
G1 F1500 X116.327 Y86.233 E58.8368
M204 S3000
M205 X10 Y10
G0 F3000 X115.535 Y86.233
M204 S1800
M205 X8 Y8
G1 F1500 X122.779 Y93.477 E59.31383
M204 S3000
M205 X10 Y10
G0 F3000 X122.779 Y94.269
M204 S1800
M205 X8 Y8
G1 F1500 X114.743 Y86.233 E59.84302
M204 S3000
M205 X10 Y10
G0 F3000 X113.951 Y86.233
M204 S1800
M205 X8 Y8
G1 F1500 X122.779 Y95.061 E60.42436
M204 S3000
M205 X10 Y10
G0 F3000 X122.779 Y95.853
M204 S1800
M205 X8 Y8
G1 F1500 X113.159 Y86.233 E61.05785
M204 S3000
M205 X10 Y10
G0 F3000 X112.367 Y86.233
M204 S1800
M205 X8 Y8
G1 F1500 X122.779 Y96.645 E61.7435
M204 S3000
M205 X10 Y10
G0 F3000 X122.779 Y97.437
M204 S1800
M205 X8 Y8
G1 F1500 X111.575 Y86.233 E62.4813
M204 S3000
M205 X10 Y10
G0 F3000 X110.783 Y86.233
M204 S1800
M205 X8 Y8
G1 F1500 X122.779 Y98.229 E63.27126
M204 S3000
M205 X10 Y10
G0 F3000 X122.779 Y99.021
M204 S1800
M205 X8 Y8
G1 F1500 X109.991 Y86.233 E64.11337
M204 S3000
M205 X10 Y10
G0 F3000 X109.199 Y86.233
M204 S1800
M205 X8 Y8
G1 F1500 X122.779 Y99.813 E65.00763
M204 S3000
M205 X10 Y10
G0 F3000 X122.779 Y100.605
M204 S1800
M205 X8 Y8
G1 F1500 X108.407 Y86.233 E65.95405
M204 S3000
M205 X10 Y10
G0 F3000 X107.615 Y86.233
M204 S1800
M205 X8 Y8
G1 F1500 X122.779 Y101.396 E66.9526
M204 S3000
M205 X10 Y10
G0 F3000 X122.779 Y102.188
M204 S1800
M205 X8 Y8
G1 F1500 X106.824 Y86.233 E68.00326
M204 S3000
M205 X10 Y10
G0 F3000 X106.032 Y86.233
M204 S1800
M205 X8 Y8
G1 F1500 X122.779 Y102.98 E69.10608
M204 S3000
M205 X10 Y10
G0 F3000 X122.779 Y103.772
M204 S1800
M205 X8 Y8
G1 F1500 X105.24 Y86.233 E70.26105
M204 S3000
M205 X10 Y10
G0 F3000 X104.448 Y86.233
M204 S1800
M205 X8 Y8
G1 F1500 X122.779 Y104.564 E71.46818
M204 S3000
M205 X10 Y10
G0 F3000 X122.78 Y105.357
M204 S1800
M205 X8 Y8
G1 F1500 X103.656 Y86.233 E72.72753
M204 S3000
M205 X10 Y10
G0 F3000 X102.864 Y86.233
M204 S1800
M205 X8 Y8
G1 F1500 X122.78 Y106.149 E74.03903
M204 S3000
M205 X10 Y10
G0 F3000 X122.78 Y106.941
M204 S1800
M205 X8 Y8
G1 F1500 X102.072 Y86.233 E75.40269
M204 S3000
M205 X10 Y10
G0 F3000 X101.28 Y86.233
M204 S1800
M205 X8 Y8
G1 F1500 X122.78 Y107.733 E76.8185
M204 S3000
M205 X10 Y10
G0 F3000 X122.78 Y108.525
M204 S1800
M205 X8 Y8
G1 F1500 X100.488 Y86.233 E78.28647
M204 S3000
M205 X10 Y10
G0 F3000 X99.696 Y86.233
M204 S1800
M205 X8 Y8
G1 F1500 X122.78 Y109.317 E79.80659
M204 S3000
M205 X10 Y10
G0 F3000 X122.78 Y110.109
M204 S1800
M205 X8 Y8
G1 F1500 X98.904 Y86.233 E81.37886
M204 S3000
M205 X10 Y10
G0 F3000 X98.112 Y86.233
M204 S1800
M205 X8 Y8
G1 F1500 X122.78 Y110.901 E83.00329
M204 S3000
M205 X10 Y10
G0 F3000 X122.78 Y111.693
M204 S1800
M205 X8 Y8
G1 F1500 X97.32 Y86.233 E84.67988
M204 S3000
M205 X10 Y10
G0 F3000 X96.528 Y86.233
M204 S1800
M205 X8 Y8
G1 F1500 X122.78 Y112.485 E86.40862
M204 S3000
M205 X10 Y10
G0 F3000 X122.78 Y113.277
M204 S1800
M205 X8 Y8
G1 F1500 X95.736 Y86.233 E88.18951
M204 S3000
M205 X10 Y10
G0 F3000 X94.944 Y86.233
M204 S1800
M205 X8 Y8
G1 F1500 X122.78 Y114.069 E90.02256
M204 S3000
M205 X10 Y10
G0 F3000 X122.78 Y114.861
M204 S1800
M205 X8 Y8
G1 F1500 X94.152 Y86.233 E91.90776
M204 S3000
M205 X10 Y10
G0 F3000 X93.36 Y86.233
M204 S1800
M205 X8 Y8
G1 F1500 X122.78 Y115.652 E93.84508
M204 S3000
M205 X10 Y10
G0 F3000 X122.78 Y116.444
M204 S1800
M205 X8 Y8
G1 F1500 X92.568 Y86.233 E95.83456
M204 S3000
M205 X10 Y10
G0 F3000 X91.776 Y86.233
M204 S1800
M205 X8 Y8
G1 F1500 X122.78 Y117.236 E97.8762
M204 S3000
M205 X10 Y10
G0 F3000 X122.78 Y118.028
M204 S1800
M205 X8 Y8
G1 F1500 X90.984 Y86.233 E99.96998
M204 S3000
M205 X10 Y10
G0 F3000 X90.192 Y86.233
M204 S1800
M205 X8 Y8
G1 F1500 X122.78 Y118.82 E102.11593
M204 S3000
M205 X10 Y10
G0 F3000 X122.78 Y119.612
M204 S1800
M205 X8 Y8
G1 F1500 X89.4 Y86.233 E104.31402
M204 S3000
M205 X10 Y10
G0 F3000 X88.608 Y86.233
M204 S1800
M205 X8 Y8
G1 F1500 X122.78 Y120.404 E106.56428
M204 S3000
M205 X10 Y10
G0 F3000 X122.78 Y121.196
M204 S1800
M205 X8 Y8
G1 F1500 X87.817 Y86.233 E108.86665
M204 S3000
M205 X10 Y10
G0 F3000 X87.218 Y86.426
M204 S1800
M205 X8 Y8
G1 F1500 X122.78 Y121.988 E111.20847
M204 S3000
M205 X10 Y10
G0 F3000 X122.78 Y122.78
M204 S1800
M205 X8 Y8
G1 F1500 X87.218 Y87.218 E113.55029
M204 S3000
M205 X10 Y10
G0 F3000 X87.218 Y88.01
M204 S1800
M205 X8 Y8
G1 F1500 X122.78 Y123.572 E115.8921
M204 S3000
M205 X10 Y10
G0 F3000 X122.182 Y123.766
M204 S1800
M205 X8 Y8
G1 F1500 X87.218 Y88.802 E118.19454
M204 S3000
M205 X10 Y10
G0 F3000 X87.218 Y89.594
M204 S1800
M205 X8 Y8
G1 F1500 X121.39 Y123.766 E120.44483
M204 S3000
M205 X10 Y10
G0 F3000 X120.598 Y123.766
M204 S1800
M205 X8 Y8
G1 F1500 X87.218 Y90.386 E122.64296
M204 S3000
M205 X10 Y10
G0 F3000 X87.218 Y91.178
M204 S1800
M205 X8 Y8
G1 F1500 X119.806 Y123.766 E124.78893
M204 S3000
M205 X10 Y10
G0 F3000 X119.014 Y123.766
M204 S1800
M205 X8 Y8
G1 F1500 X87.218 Y91.97 E126.88275
M204 S3000
M205 X10 Y10
G0 F3000 X87.218 Y92.762
M204 S1800
M205 X8 Y8
G1 F1500 X118.222 Y123.766 E128.92442
M204 S3000
M205 X10 Y10
G0 F3000 X117.43 Y123.766
M204 S1800
M205 X8 Y8
G1 F1500 X87.218 Y93.554 E130.91393
M204 S3000
M205 X10 Y10
G0 F3000 X87.218 Y94.346
M204 S1800
M205 X8 Y8
G1 F1500 X116.638 Y123.766 E132.85129
M204 S3000
M205 X10 Y10
G0 F3000 X115.846 Y123.766
M204 S1800
M205 X8 Y8
G1 F1500 X87.218 Y95.138 E134.73649
M204 S3000
M205 X10 Y10
G0 F3000 X87.218 Y95.93
M204 S1800
M205 X8 Y8
G1 F1500 X115.054 Y123.766 E136.56954
M204 S3000
M205 X10 Y10
G0 F3000 X114.262 Y123.766
M204 S1800
M205 X8 Y8
G1 F1500 X87.218 Y96.722 E138.35043
M204 S3000
M205 X10 Y10
G0 F3000 X87.218 Y97.514
M204 S1800
M205 X8 Y8
G1 F1500 X113.47 Y123.766 E140.07917
M204 S3000
M205 X10 Y10
G0 F3000 X112.678 Y123.766
M204 S1800
M205 X8 Y8
G1 F1500 X87.218 Y98.306 E141.75576
M204 S3000
M205 X10 Y10
G0 F3000 X87.218 Y99.098
M204 S1800
M205 X8 Y8
G1 F1500 X111.886 Y123.766 E143.38019
M204 S3000
M205 X10 Y10
G0 F3000 X111.094 Y123.766
M204 S1800
M205 X8 Y8
G1 F1500 X87.218 Y99.89 E144.95246
M204 S3000
M205 X10 Y10
G0 F3000 X87.218 Y100.682
M204 S1800
M205 X8 Y8
G1 F1500 X110.303 Y123.766 E146.47262
M204 S3000
M205 X10 Y10
G0 F3000 X109.511 Y123.766
M204 S1800
M205 X8 Y8
G1 F1500 X87.218 Y101.474 E147.94062
M204 S3000
M205 X10 Y10
G0 F3000 X87.218 Y102.266
M204 S1800
M205 X8 Y8
G1 F1500 X108.719 Y123.766 E149.35646
M204 S3000
M205 X10 Y10
G0 F3000 X107.927 Y123.766
M204 S1800
M205 X8 Y8
G1 F1500 X87.218 Y103.057 E150.72018
M204 S3000
M205 X10 Y10
G0 F3000 X87.218 Y103.849
M204 S1800
M205 X8 Y8
G1 F1500 X107.135 Y123.766 E152.03175
M204 S3000
M205 X10 Y10
G0 F3000 X106.343 Y123.766
M204 S1800
M205 X8 Y8
G1 F1500 X87.218 Y104.641 E153.29117
M204 S3000
M205 X10 Y10
G0 F3000 X87.219 Y105.434
M204 S1800
M205 X8 Y8
G1 F1500 X105.551 Y123.766 E154.49836
M204 S3000
M205 X10 Y10
G0 F3000 X104.759 Y123.766
M204 S1800
M205 X8 Y8
G1 F1500 X87.219 Y106.226 E155.6534
M204 S3000
M205 X10 Y10
G0 F3000 X87.219 Y107.018
M204 S1800
M205 X8 Y8
G1 F1500 X103.967 Y123.766 E156.75628
M204 S3000
M205 X10 Y10
G0 F3000 X103.175 Y123.766
M204 S1800
M205 X8 Y8
G1 F1500 X87.219 Y107.81 E157.80701
M204 S3000
M205 X10 Y10
G0 F3000 X87.219 Y108.602
M204 S1800
M205 X8 Y8
G1 F1500 X102.383 Y123.766 E158.80559
M204 S3000
M205 X10 Y10
G0 F3000 X101.591 Y123.766
M204 S1800
M205 X8 Y8
G1 F1500 X87.219 Y109.394 E159.75201
M204 S3000
M205 X10 Y10
G0 F3000 X87.219 Y110.186
M204 S1800
M205 X8 Y8
G1 F1500 X100.799 Y123.766 E160.64628
M204 S3000
M205 X10 Y10
G0 F3000 X100.007 Y123.766
M204 S1800
M205 X8 Y8
G1 F1500 X87.219 Y110.978 E161.48839
M204 S3000
M205 X10 Y10
G0 F3000 X87.219 Y111.77
M204 S1800
M205 X8 Y8
G1 F1500 X99.215 Y123.766 E162.27834
M204 S3000
M205 X10 Y10
G0 F3000 X98.423 Y123.766
M204 S1800
M205 X8 Y8
G1 F1500 X87.219 Y112.562 E163.01615
M204 S3000
M205 X10 Y10
G0 F3000 X87.219 Y113.354
M204 S1800
M205 X8 Y8
G1 F1500 X97.631 Y123.766 E163.70179
M204 S3000
M205 X10 Y10
G0 F3000 X96.839 Y123.766
M204 S1800
M205 X8 Y8
G1 F1500 X87.219 Y114.146 E164.33529
M204 S3000
M205 X10 Y10
