;FLAVOR:Marlin
;TIME:2028
;Filament used: 2.04594m
;Layer height: 0.2
;MINX:81.105
;MINY:79.405
;MINZ:0.2
;MAXX:128.889
;MAXY:130.602
;MAXZ:10.6
;Generated with Cura_SteamEngine main
M140 S60
M105
M190 S60
M104 S200
M105
M109 S200
M82 ;absolute extrusion mode
G21 ;metric values
G90 ;absolute positioning
M82 ;set extruder to absolute mode
M107 ;start with the fan off
G28 X0 Y0 ;move X/Y to min endstops
G28 Z0 ;move Z to min endstops
G1 Z15.0 F100 ;move the platform down 15mm
G92 E0 ;zero the extruded length
G1 F200 E3 ;extrude 3mm of feed stock
G92 E0 ;zero the extruded length again
G1 F100
G0 Y20 F100
M117 Printing...
G5
G92 E0
G92 E0
G1 F2400 E-6
;LAYER_COUNT:53
;LAYER:0
M107
M204 S3000
M205 X10 Y10
G1 F600 Z0.275
G0 F3000 X88.209 Y84.653 Z0.275
G1 F600 Z0.2
G0 F3000 X83.599 Y92.014
M204 S1800
M205 X8 Y8
;TYPE:SKIRT
G1 F2400 E0
G1 X84.21 Y90.639 E0.07006
G1 X84.879 Y89.334 E0.13835
G1 X85.462 Y88.328 E0.19249
G1 X85.925 Y87.594 E0.2329
G1 X86.333 Y86.988 E0.26692
G1 X86.779 Y86.375 E0.30222
G1 X87.298 Y85.701 E0.34183
G1 X88.209 Y84.653 E0.40649
G1 X89.065 Y83.798 E0.46282
G1 X89.773 Y83.146 E0.50764
G1 X90.387 Y82.651 E0.54436
G1 X91.064 Y82.151 E0.58355
G1 X91.582 Y81.798 E0.61274
G1 X92.066 Y81.501 E0.63918
G1 X93.309 Y80.818 E0.70522
G1 X94.101 Y80.474 E0.74543
G1 X94.899 Y80.181 E0.78502
G1 X95.434 Y80.016 E0.81109
G1 X96.129 Y79.826 E0.84464
G1 X96.731 Y79.692 E0.87335
G1 X97.521 Y79.556 E0.91068
G1 X98.135 Y79.48 E0.93949
G1 X98.946 Y79.42 E0.97736
G1 X99.595 Y79.405 E1.00758
G1 X100.391 Y79.427 E1.04466
G1 X100.915 Y79.463 E1.06912
G1 X101.587 Y79.537 E1.1006
G1 X102.192 Y79.62 E1.12904
G1 X102.735 Y79.721 E1.15475
G1 X103.354 Y79.87 E1.1844
G1 X104.195 Y80.103 E1.22504
G1 X106.708 Y80.836 E1.34693
G1 X109.323 Y81.519 E1.47278
G1 X110.977 Y81.922 E1.55205
G1 X111.936 Y82.192 E1.59844
G1 X112.443 Y82.351 E1.62318
G1 X113.35 Y82.67 E1.66795
G1 X114.036 Y82.938 E1.70224
G1 X115.075 Y83.383 E1.75488
G1 X116.086 Y83.891 E1.80756
G1 X116.693 Y84.219 E1.83969
G1 X117.349 Y84.602 E1.87506
G1 X117.938 Y84.97 E1.9074
G1 X118.746 Y85.512 E1.9527
G1 X119.17 Y85.819 E1.97708
G1 X119.778 Y86.283 E2.01269
G1 X120.339 Y86.738 E2.04633
G1 X120.9 Y87.224 E2.08089
G1 X121.409 Y87.692 E2.11308
G1 X121.98 Y88.249 E2.15023
G1 X122.48 Y88.769 E2.18382
G1 X122.965 Y89.306 E2.21751
G1 X123.45 Y89.877 E2.2524
G1 X123.917 Y90.463 E2.28729
G1 X124.237 Y90.887 E2.31202
G1 X124.794 Y91.679 E2.35711
G1 X125.18 Y92.269 E2.38994
G1 X125.664 Y93.065 E2.43332
G1 X125.939 Y93.554 E2.45944
G1 X126.279 Y94.196 E2.49327
G1 X126.516 Y94.673 E2.51807
G1 X126.998 Y95.738 E2.5725
G1 X127.201 Y96.233 E2.59742
G1 X127.603 Y97.298 E2.65042
G1 X127.985 Y98.545 E2.71115
G1 X128.123 Y99.06 E2.73598
G1 X128.326 Y99.905 E2.77644
G1 X128.444 Y100.468 E2.80323
G1 X128.611 Y101.416 E2.84805
G1 X128.682 Y101.926 E2.87203
G1 X128.769 Y102.67 E2.90691
G1 X128.815 Y103.172 E2.93038
G1 X128.889 Y104.544 E2.99436
G1 X128.881 Y105.626 E3.04474
G1 X128.852 Y106.359 E3.0789
G1 X128.8 Y107.105 E3.11372
G1 X128.728 Y107.809 E3.14668
G1 X128.598 Y108.759 E3.19132
G1 X128.511 Y109.275 E3.21569
G1 X128.368 Y110.009 E3.25051
G1 X128.237 Y110.591 E3.27829
G1 X128.019 Y111.433 E3.31879
G1 X127.872 Y111.946 E3.34364
G1 X127.51 Y113.046 E3.39756
G1 X127.32 Y113.561 E3.42312
G1 X126.902 Y114.598 E3.47518
G1 X126.34 Y115.787 E3.53642
G1 X126.096 Y116.257 E3.56108
G1 X125.749 Y116.888 E3.59461
G1 X125.484 Y117.342 E3.61909
G1 X124.851 Y118.339 E3.67408
G1 X124.551 Y118.774 E3.69869
G1 X123.879 Y119.696 E3.75181
G1 X123.188 Y120.534 E3.80239
G1 X122.837 Y120.939 E3.82734
G1 X122.216 Y121.611 E3.86995
G1 X121.69 Y122.139 E3.90465
G1 X120.993 Y122.796 E3.94925
G1 X120.614 Y123.128 E3.97272
G1 X119.875 Y123.742 E4.01745
G1 X119.428 Y124.088 E4.04378
G1 X118.841 Y124.519 E4.07769
G1 X118.427 Y124.807 E4.10117
G1 X117.428 Y125.451 E4.15651
G1 X116.994 Y125.707 E4.17998
G1 X116.32 Y126.084 E4.21594
G1 X115.676 Y126.419 E4.24974
G1 X115.019 Y126.734 E4.28367
G1 X114.33 Y127.04 E4.31877
G1 X113.669 Y127.31 E4.35202
G1 X113.184 Y127.493 E4.37616
G1 X112.049 Y127.874 E4.4319
G1 X111.555 Y128.02 E4.45589
G1 X110.838 Y128.213 E4.49047
G1 X110.256 Y128.353 E4.51834
G1 X107.207 Y129.014 E4.66361
G1 X104.668 Y129.645 E4.78543
G1 X103.875 Y129.866 E4.82377
G1 X102.551 Y130.217 E4.88755
G1 X101.784 Y130.365 E4.92392
G1 X101.065 Y130.477 E4.9578
G1 X100.209 Y130.561 E4.99785
G1 X99.677 Y130.598 E5.02269
G1 X98.957 Y130.602 E5.05621
G1 X98.303 Y130.569 E5.08671
G1 X97.724 Y130.524 E5.11375
G1 X96.986 Y130.42 E5.14845
G1 X96.012 Y130.224 E5.19471
G1 X95.491 Y130.085 E5.21982
G1 X95 Y129.933 E5.24376
G1 X94.221 Y129.65 E5.28235
G1 X93.21 Y129.226 E5.3334
G1 X92.527 Y128.873 E5.3692
G1 X92.012 Y128.57 E5.39702
G1 X91.488 Y128.24 E5.42586
G1 X90.895 Y127.83 E5.45943
G1 X90.433 Y127.484 E5.4863
G1 X89.874 Y127.034 E5.51972
G1 X89.164 Y126.395 E5.5642
G1 X88.628 Y125.865 E5.5993
G1 X87.768 Y124.931 E5.65842
G1 X87.131 Y124.147 E5.70545
G1 X86.757 Y123.657 E5.73416
G1 X86.375 Y123.122 E5.76477
G1 X85.989 Y122.548 E5.79698
G1 X85.599 Y121.929 E5.83104
G1 X85.13 Y121.138 E5.87386
G1 X84.423 Y119.796 E5.94449
G1 X83.854 Y118.568 E6.00751
G1 X83.296 Y117.189 E6.07678
G1 X82.936 Y116.193 E6.1261
G1 X82.4 Y114.418 E6.21244
G1 X82.057 Y113.085 E6.27653
G1 X81.747 Y111.641 E6.3453
G1 X81.553 Y110.536 E6.39754
G1 X81.364 Y109.16 E6.46221
G1 X81.2 Y107.406 E6.54424
G1 X81.118 Y105.809 E6.6187
G1 X81.105 Y105.172 E6.64837
G1 X81.11 Y104.545 E6.67757
G1 X81.167 Y103.021 E6.74858
G1 X81.275 Y101.57 E6.81633
G1 X81.477 Y99.854 E6.89679
G1 X81.63 Y98.845 E6.94431
G1 X82.008 Y97.029 E7.03068
G1 X82.228 Y96.113 E7.07455
G1 X82.62 Y94.741 E7.14099
G1 X83.043 Y93.467 E7.2035
G1 X83.599 Y92.014 E7.27594
M204 S3000
M205 X10 Y10
G1 F2400 E1.27594
G0 F3000 X82.589 Y99.989
M204 S1800
M205 X8 Y8
G1 F2400 E7.27594
G1 X82.734 Y99.038 E7.32073
G1 X83.145 Y97.078 E7.41398
G1 X83.316 Y96.379 E7.44749
G1 X83.763 Y94.837 E7.52225
G1 X84.104 Y93.825 E7.57198
G1 X84.593 Y92.55 E7.63556
G1 X85.07 Y91.455 E7.69118
G1 X85.33 Y90.91 E7.7193
G1 X85.922 Y89.768 E7.77919
G1 X86.409 Y88.926 E7.82448
G1 X86.872 Y88.192 E7.86489
G1 X87.449 Y87.344 E7.91265
G1 X88.158 Y86.42 E7.96689
G1 X89.034 Y85.412 E8.02907
G1 X89.856 Y84.591 E8.08317
G1 X90.424 Y84.07 E8.11906
G1 X91.091 Y83.522 E8.15925
G1 X91.719 Y83.06 E8.19556
G1 X92.399 Y82.596 E8.23389
G1 X93.813 Y81.819 E8.30902
G1 X94.491 Y81.524 E8.34345
G1 X95.417 Y81.182 E8.38941
G1 X96.425 Y80.906 E8.43808
G1 X96.921 Y80.796 E8.46173
G1 X97.711 Y80.66 E8.49906
G1 X98.217 Y80.597 E8.5228
G1 X99.028 Y80.537 E8.56067
G1 X99.564 Y80.525 E8.58564
G1 X100.58 Y80.553 E8.63296
G1 X101.874 Y80.699 E8.6936
G1 X102.483 Y80.812 E8.72244
G1 X103.056 Y80.949 E8.74987
G1 X103.881 Y81.178 E8.78974
G1 X106.423 Y81.92 E8.91305
G1 X109.017 Y82.597 E9.03788
G1 X110.712 Y83.01 E9.11912
G1 X111.776 Y83.314 E9.17064
G1 X112.257 Y83.471 E9.1942
G1 X113.343 Y83.86 E9.24792
G1 X114.513 Y84.358 E9.30713
G1 X115.584 Y84.892 E9.36285
G1 X116.128 Y85.186 E9.39165
G1 X116.784 Y85.569 E9.42702
G1 X117.317 Y85.902 E9.45628
G1 X117.953 Y86.326 E9.49188
G1 X118.49 Y86.71 E9.52262
G1 X119.098 Y87.174 E9.55823
G1 X119.605 Y87.584 E9.58859
G1 X120.166 Y88.07 E9.62315
G1 X120.627 Y88.493 E9.65229
G1 X121.198 Y89.05 E9.68943
G1 X121.546 Y89.41 E9.71274
G1 X122.133 Y90.057 E9.75342
G1 X122.574 Y90.575 E9.7851
G1 X123.22 Y91.385 E9.83334
G1 X124.078 Y92.614 E9.90314
G1 X124.607 Y93.478 E9.95031
G1 X124.87 Y93.934 E9.97482
G1 X125.459 Y95.045 E10.03337
G1 X125.902 Y96.025 E10.08345
G1 X126.154 Y96.631 E10.11401
G1 X126.521 Y97.601 E10.16231
G1 X126.905 Y98.841 E10.22275
G1 X127.035 Y99.324 E10.24604
G1 X127.201 Y100.008 E10.27882
G1 X127.342 Y100.666 E10.31015
G1 X127.473 Y101.394 E10.34459
G1 X127.551 Y101.916 E10.36917
G1 X127.696 Y103.16 E10.42749
G1 X127.769 Y104.571 E10.49328
G1 X127.761 Y105.617 E10.54199
G1 X127.734 Y106.281 E10.57293
G1 X127.653 Y107.401 E10.62522
G1 X127.462 Y108.805 E10.6912
G1 X127.269 Y109.795 E10.73816
G1 X127.112 Y110.476 E10.7707
G1 X126.936 Y111.15 E10.80314
G1 X126.745 Y111.798 E10.8346
G1 X126.504 Y112.528 E10.87039
G1 X126.28 Y113.146 E10.901
G1 X126.003 Y113.839 E10.93575
G1 X125.739 Y114.445 E10.96653
G1 X125.253 Y115.466 E11.01919
G1 X124.641 Y116.58 E11.07837
G1 X124.022 Y117.561 E11.13239
G1 X123.644 Y118.117 E11.16369
G1 X123.023 Y118.97 E11.21282
G1 X122.111 Y120.076 E11.27957
G1 X121.168 Y121.089 E11.34402
G1 X120.185 Y122.025 E11.40722
G1 X119.184 Y122.86 E11.46792
G1 X118.765 Y123.185 E11.49261
G1 X118.178 Y123.616 E11.52652
G1 X117.667 Y123.968 E11.55541
G1 X117.019 Y124.387 E11.59135
G1 X116.448 Y124.729 E11.62234
G1 X115.774 Y125.106 E11.6583
G1 X115.192 Y125.409 E11.68885
G1 X114.535 Y125.724 E11.72278
G1 X113.907 Y126.003 E11.75478
G1 X112.902 Y126.409 E11.80525
G1 X111.535 Y126.866 E11.87236
G1 X110.546 Y127.132 E11.92005
G1 X110.019 Y127.258 E11.94528
G1 X106.963 Y127.92 E12.09088
G1 X104.377 Y128.563 E12.21497
G1 X103.589 Y128.783 E12.25306
G1 X102.299 Y129.125 E12.3152
G1 X101.611 Y129.259 E12.34784
G1 X100.939 Y129.364 E12.37951
G1 X99.76 Y129.479 E12.43467
G1 X99.014 Y129.483 E12.46941
G1 X98.36 Y129.45 E12.4999
G1 X97.816 Y129.408 E12.52531
G1 X97.207 Y129.322 E12.55395
G1 X96.507 Y129.181 E12.5872
G1 X95.6 Y128.959 E12.63068
G1 X94.654 Y128.617 E12.67752
G1 X93.633 Y128.187 E12.7291
G1 X93.09 Y127.905 E12.75759
G1 X92.609 Y127.622 E12.78358
G1 X91.929 Y127.194 E12.82099
G1 X91.107 Y126.59 E12.86849
G1 X90.687 Y126.251 E12.89362
G1 X89.784 Y125.447 E12.94992
G1 X89.318 Y124.964 E12.98118
G1 X88.611 Y124.193 E13.02989
G1 X88 Y123.441 E13.075
G1 X87.431 Y122.687 E13.11899
G1 X86.921 Y121.927 E13.16161
G1 X86.562 Y121.358 E13.19293
G1 X86.173 Y120.702 E13.22845
G1 X85.429 Y119.304 E13.30219
G1 X84.841 Y118.019 E13.36799
G1 X84.35 Y116.808 E13.42884
G1 X83.997 Y115.831 E13.47721
G1 X83.483 Y114.135 E13.55973
G1 X83.151 Y112.847 E13.62166
G1 X82.892 Y111.66 E13.67824
G1 X82.623 Y110.128 E13.75066
G1 X82.474 Y109.012 E13.80309
G1 X82.318 Y107.346 E13.88101
G1 X82.244 Y105.959 E13.94568
G1 X82.219 Y104.913 E13.9944
G1 X82.299 Y102.849 E14.09058
G1 X82.414 Y101.433 E14.15673
G1 X82.589 Y99.989 E14.22447
M204 S3000
M205 X10 Y10
G1 F2400 E8.22447
G0 F3000 X81.659 Y104.925
M204 S1800
M205 X8 Y8
G1 F2400 E14.22447
G1 X81.727 Y103.042 E14.3122
G1 X81.858 Y101.365 E14.39053
G1 X82.033 Y99.921 E14.45826
G1 X82.179 Y98.956 E14.50371
G1 X82.601 Y96.945 E14.59939
G1 X82.772 Y96.246 E14.63289
G1 X83.158 Y94.897 E14.69823
G1 X83.615 Y93.523 E14.76566
G1 X84.071 Y92.347 E14.82439
G1 X84.685 Y90.947 E14.89557
G1 X85.378 Y89.589 E14.96656
G1 X85.936 Y88.627 E15.01835
G1 X86.513 Y87.719 E15.06844
G1 X86.901 Y87.155 E15.10032
G1 X87.223 Y86.716 E15.12567
G1 X87.73 Y86.059 E15.16431
G1 X88.617 Y85.037 E15.22733
G1 X89.46 Y84.195 E15.28281
G1 X90.156 Y83.557 E15.32677
G1 X90.739 Y83.086 E15.36167
G1 X91.391 Y82.606 E15.39937
G1 X91.896 Y82.262 E15.42782
G1 X92.337 Y81.991 E15.45192
G1 X93.148 Y81.542 E15.49509
G1 X93.701 Y81.258 E15.52404
G1 X94.296 Y80.999 E15.55425
G1 X95.08 Y80.71 E15.59316
G1 X95.582 Y80.556 E15.61761
G1 X96.277 Y80.366 E15.65116
G1 X96.826 Y80.244 E15.67735
G1 X97.616 Y80.108 E15.71467
G1 X98.176 Y80.039 E15.74095
G1 X98.987 Y79.979 E15.77881
G1 X99.579 Y79.965 E15.80639
G1 X100.613 Y79.994 E15.85455
G1 X101.525 Y80.094 E15.89728
G1 X102.114 Y80.175 E15.92496
G1 X102.609 Y80.267 E15.9484
G1 X103.205 Y80.41 E15.97694
G1 X104.038 Y80.641 E16.0172
G1 X106.554 Y81.375 E16.13923
G1 X109.155 Y82.054 E16.26441
G1 X110.845 Y82.466 E16.3454
G1 X111.781 Y82.73 E16.39069
G1 X112.444 Y82.943 E16.42312
G1 X113.338 Y83.263 E16.46733
G1 X113.817 Y83.453 E16.49133
G1 X114.739 Y83.846 E16.53799
G1 X115.835 Y84.392 E16.59501
G1 X116.411 Y84.703 E16.62549
G1 X117.313 Y85.23 E16.67414
G1 X118.42 Y85.968 E16.73609
G1 X118.83 Y86.264 E16.75963
G1 X119.438 Y86.728 E16.79525
G1 X119.972 Y87.161 E16.82726
G1 X120.781 Y87.865 E16.8772
G1 X121.589 Y88.65 E16.92965
G1 X121.951 Y89.023 E16.95386
G1 X122.549 Y89.682 E16.99529
G1 X122.891 Y90.079 E17.01969
G1 X123.688 Y91.079 E17.07924
G1 X124.335 Y92 E17.13165
G1 X124.703 Y92.562 E17.16293
G1 X125.272 Y93.498 E17.21393
G1 X125.784 Y94.458 E17.26459
G1 X126.09 Y95.083 E17.297
G1 X126.481 Y95.954 E17.34145
G1 X126.678 Y96.432 E17.36553
G1 X127.035 Y97.371 E17.41231
G1 X127.445 Y98.693 E17.47676
G1 X127.579 Y99.192 E17.50081
G1 X127.779 Y100.023 E17.54061
G1 X127.893 Y100.567 E17.5665
G1 X128.024 Y101.295 E17.60094
G1 X128.125 Y101.991 E17.63369
G1 X128.249 Y103.073 E17.6844
G1 X128.33 Y104.569 E17.75416
G1 X128.316 Y105.819 E17.81237
G1 X128.293 Y106.32 E17.83572
G1 X128.221 Y107.353 E17.88394
G1 X128.046 Y108.668 E17.94571
G1 X127.961 Y109.168 E17.96933
G1 X127.818 Y109.902 E18.00415
G1 X127.654 Y110.618 E18.03835
G1 X127.478 Y111.292 E18.07079
G1 X127.335 Y111.788 E18.09483
G1 X127.036 Y112.704 E18.13969
G1 X126.8 Y113.354 E18.17189
G1 X126.523 Y114.047 E18.20664
G1 X126.321 Y114.517 E18.23047
G1 X125.921 Y115.369 E18.27429
G1 X125.687 Y115.833 E18.29849
G1 X125.258 Y116.618 E18.34015
G1 X124.909 Y117.208 E18.37207
G1 X124.388 Y118.024 E18.41715
G1 X124.098 Y118.446 E18.44099
G1 X123.504 Y119.266 E18.48814
G1 X122.756 Y120.178 E18.54306
G1 X122.299 Y120.7 E18.57536
G1 X121.55 Y121.499 E18.62636
G1 X120.474 Y122.516 E18.6953
G1 X119.676 Y123.183 E18.74373
G1 X119.24 Y123.528 E18.76962
G1 X118.197 Y124.293 E18.82985
G1 X116.981 Y125.073 E18.89712
G1 X115.78 Y125.744 E18.96118
G1 X114.451 Y126.383 E19.02984
G1 X113.098 Y126.934 E19.09787
G1 X112.067 Y127.281 E19.14852
G1 X111.576 Y127.432 E19.17244
G1 X110.692 Y127.672 E19.2151
G1 X110.137 Y127.805 E19.24167
G1 X107.12 Y128.459 E19.38542
G1 X104.518 Y129.106 E19.51027
G1 X103.808 Y129.304 E19.54459
G1 X102.407 Y129.675 E19.61207
G1 X101.697 Y129.812 E19.64574
G1 X101.001 Y129.921 E19.67855
G1 X99.753 Y130.038 E19.73692
G1 X98.986 Y130.043 E19.77263
G1 X98.332 Y130.01 E19.80312
G1 X97.77 Y129.966 E19.82937
G1 X97.097 Y129.871 E19.86102
G1 X96.089 Y129.668 E19.9089
G1 X95.182 Y129.404 E19.95289
G1 X94.437 Y129.134 E19.98978
G1 X93.438 Y128.715 E20.04023
G1 X92.808 Y128.389 E20.07326
G1 X92.311 Y128.096 E20.10012
G1 X91.63 Y127.667 E20.1376
G1 X90.902 Y127.143 E20.17937
G1 X90.333 Y126.685 E20.21338
G1 X89.539 Y125.979 E20.26285
G1 X89.029 Y125.474 E20.29627
G1 X88.188 Y124.561 E20.35407
G1 X87.428 Y123.618 E20.41047
G1 X86.952 Y122.979 E20.44757
G1 X86.374 Y122.113 E20.49605
G1 X86.081 Y121.644 E20.5218
G1 X85.615 Y120.858 E20.56435
G1 X84.928 Y119.555 E20.63294
G1 X84.322 Y118.231 E20.70074
G1 X83.911 Y117.227 E20.75126
G1 X83.466 Y116.011 E20.81155
G1 X82.941 Y114.276 E20.89596
G1 X82.659 Y113.196 E20.94793
G1 X82.345 Y111.779 E21.01552
G1 X82.068 Y110.202 E21.09007
G1 X81.893 Y108.858 E21.15318
G1 X81.776 Y107.61 E21.21155
G1 X81.685 Y105.989 E21.28715
G1 X81.659 Y104.925 E21.33671
M204 S3000
M205 X10 Y10
G1 F2400 E15.33671
;MESH:trns_4.stl
G0 F3000 X86.967 Y107.734
G0 X88.046 Y107.655
G0 X103.85 Y121.259
M204 S1800
M205 X8 Y8
;TYPE:WALL-INNER
G1 F2400 E21.33671
G1 F1500 X104.336 Y121.143 E21.35997
G1 X105.468 Y121.142 E21.41269
G1 X106.463 Y121.083 E21.4591
G1 X107.449 Y120.961 E21.50536
G1 X108.431 Y120.779 E21.55187
G1 X109.385 Y120.539 E21.59767
G1 X110.348 Y120.235 E21.64469
G1 X111.275 Y119.875 E21.691
G1 X112.182 Y119.458 E21.73748
G1 X113.06 Y118.985 E21.78392
G1 X113.907 Y118.46 E21.83032
G1 X114.72 Y117.884 E21.87672
G1 X115.495 Y117.259 E21.92308
G1 X116.23 Y116.586 E21.96948
G1 X116.921 Y115.87 E22.01582
G1 X117.569 Y115.111 E22.06229
G1 X118.166 Y114.315 E22.10862
G1 X118.715 Y113.483 E22.15503
G1 X119.208 Y112.618 E22.2014
G1 X119.651 Y111.721 E22.24798
G1 X120.036 Y110.804 E22.29429
G1 X120.363 Y109.864 E22.34063
G1 X120.629 Y108.906 E22.38693
G1 X120.84 Y107.929 E22.43347
G1 X120.987 Y106.946 E22.47975
G1 X121.074 Y105.951 E22.52626
G1 X121.099 Y104.957 E22.57256
G1 X121.062 Y103.961 E22.61897
G1 X120.964 Y102.971 E22.66529
G1 X120.804 Y101.987 E22.71171
G1 X120.583 Y101.015 E22.75813
G1 X120.308 Y100.07 E22.80396
G1 X119.967 Y99.119 E22.851
G1 X119.572 Y98.205 E22.89737
