;FLAVOR:Marlin
;TIME:313
;Filament used: 0.25271m
;Layer height: 0.2
;MINX:68.613
;MINY:96.27
;MINZ:0.2
;MAXX:141.388
;MAXY:113.73
;MAXZ:2
;Generated with Cura_SteamEngine main
M140 S60
M105
M190 S60
M104 S200
M105
M109 S200
M82 ;absolute extrusion mode
G21 ;metric values
G90 ;absolute positioning
M82 ;set extruder to absolute mode
M107 ;start with the fan off
G28 X0 Y0 ;move X/Y to min endstops
G28 Z0 ;move Z to min endstops
G1 Z15.0 F100 ;move the platform down 15mm
G92 E0 ;zero the extruded length
G1 F200 E3 ;extrude 3mm of feed stock
G92 E0 ;zero the extruded length again
G1 F100
G0 Y20 F100
M117 Printing...
G5
G92 E0
G92 E0
G1 F2400 E-6
;LAYER_COUNT:10
;LAYER:0
M107
M204 S3000
M205 X10 Y10
G1 F600 Z0.275
G0 F3000 X71.19 Y97.634 Z0.275
G1 F600 Z0.2
G0 F3000 X68.613 Y107.147
M204 S1800
M205 X8 Y8
;TYPE:SKIRT
G1 F2400 E0
G1 X68.641 Y106.13 E0.04737
G1 X68.68 Y105.197 E0.09086
G1 X68.697 Y103.995 E0.14683
G1 X68.707 Y103.851 E0.15355
G1 X68.725 Y102.591 E0.21223
G1 X68.775 Y101.877 E0.24556
G1 X68.904 Y101.174 E0.27884
G1 X69.111 Y100.489 E0.31216
G1 X69.394 Y99.832 E0.34547
G1 X69.747 Y99.21 E0.37877
G1 X70.168 Y98.632 E0.41207
G1 X70.651 Y98.104 E0.44539
G1 X71.19 Y97.634 E0.47869
G1 X71.778 Y97.227 E0.51199
G1 X72.407 Y96.887 E0.54528
G1 X73.071 Y96.62 E0.57861
G1 X73.76 Y96.429 E0.6119
G1 X74.609 Y96.293 E0.65194
G1 X75.445 Y96.273 E0.69088
G1 X134.24 Y96.27 E3.42862
G1 X135.031 Y96.281 E3.46545
G1 X135.744 Y96.331 E3.49874
G1 X136.447 Y96.46 E3.53202
G1 X137.132 Y96.667 E3.56534
G1 X137.789 Y96.95 E3.59865
G1 X138.411 Y97.304 E3.63197
G1 X138.989 Y97.725 E3.66527
G1 X139.517 Y98.207 E3.69856
G1 X139.987 Y98.746 E3.73186
G1 X140.395 Y99.334 E3.76518
G1 X140.734 Y99.964 E3.7985
G1 X141.001 Y100.627 E3.83178
G1 X141.192 Y101.317 E3.86512
G1 X141.328 Y102.167 E3.9052
G1 X141.349 Y103.019 E3.94488
G1 X141.349 Y104.314 E4.00518
G1 X141.388 Y107.177 E4.13851
G1 X141.364 Y107.892 E4.17182
G1 X141.261 Y108.599 E4.20509
G1 X141.079 Y109.291 E4.23841
G1 X140.821 Y109.958 E4.27171
G1 X140.49 Y110.592 E4.30501
G1 X140.091 Y111.186 E4.33833
G1 X139.627 Y111.731 E4.37166
G1 X139.106 Y112.221 E4.40496
G1 X138.534 Y112.649 E4.43823
G1 X137.917 Y113.011 E4.47154
G1 X137.264 Y113.303 E4.50485
G1 X136.582 Y113.519 E4.53816
G1 X135.88 Y113.658 E4.57148
G1 X135.102 Y113.719 E4.60782
G1 X134.419 Y113.73 E4.63963
G1 X75.615 Y113.729 E7.37779
G1 X74.919 Y113.719 E7.4102
G1 X74.206 Y113.669 E7.44348
G1 X73.502 Y113.54 E7.47681
G1 X72.818 Y113.332 E7.5101
G1 X72.16 Y113.05 E7.54343
G1 X71.539 Y112.696 E7.57672
G1 X70.961 Y112.275 E7.61002
G1 X70.433 Y111.792 E7.64334
G1 X69.962 Y111.253 E7.67667
G1 X69.555 Y110.666 E7.70993
G1 X69.216 Y110.036 E7.74324
G1 X68.949 Y109.372 E7.77656
G1 X68.758 Y108.683 E7.80986
G1 X68.645 Y107.977 E7.84315
G1 X68.613 Y107.147 E7.88183
M204 S3000
M205 X10 Y10
G0 F3000 X69.166 Y107.422
M204 S1800
M205 X8 Y8
G1 F2400 X69.201 Y106.153 E7.94094
G1 X69.239 Y105.228 E7.98405
G1 X69.257 Y104.003 E8.04109
G1 X69.267 Y103.864 E8.04758
G1 X69.285 Y102.599 E8.10649
G1 X69.334 Y101.917 E8.13833
G1 X69.463 Y101.247 E8.1701
G1 X69.67 Y100.595 E8.20196
G1 X69.951 Y99.972 E8.23378
G1 X70.302 Y99.387 E8.26555
G1 X70.72 Y98.846 E8.29738
G1 X71.198 Y98.358 E8.32919
G1 X71.73 Y97.929 E8.36101
G1 X72.309 Y97.565 E8.39286
G1 X72.925 Y97.272 E8.42462
G1 X73.572 Y97.052 E8.45644
G1 X74.24 Y96.909 E8.48825
G1 X75.082 Y96.833 E8.52762
G1 X134.24 Y96.83 E11.28226
G1 X135.023 Y96.841 E11.31873
G1 X135.704 Y96.89 E11.35052
G1 X136.375 Y97.019 E11.38234
G1 X137.026 Y97.226 E11.41414
G1 X137.649 Y97.507 E11.44597
G1 X138.235 Y97.859 E11.4778
G1 X138.775 Y98.277 E11.5096
G1 X139.263 Y98.755 E11.5414
G1 X139.692 Y99.287 E11.57323
G1 X140.056 Y99.865 E11.60503
G1 X140.349 Y100.482 E11.63684
G1 X140.569 Y101.129 E11.66866
G1 X140.712 Y101.797 E11.70047
G1 X140.776 Y102.508 E11.73371
G1 X140.789 Y103.019 E11.75751
G1 X140.789 Y104.321 E11.81814
G1 X140.814 Y106.519 E11.92049
G1 X140.829 Y107.189 E11.9517
G1 X140.804 Y107.872 E11.98352
G1 X140.7 Y108.547 E12.01533
G1 X140.517 Y109.206 E12.04717
G1 X140.259 Y109.838 E12.07896
G1 X139.929 Y110.436 E12.11076
G1 X139.531 Y110.992 E12.1426
G1 X139.071 Y111.497 E12.17441
G1 X138.555 Y111.945 E12.20623
G1 X137.991 Y112.33 E12.23803
G1 X137.385 Y112.646 E12.26985
G1 X136.747 Y112.89 E12.30166
G1 X136.084 Y113.057 E12.33349
G1 X135.092 Y113.159 E12.37993
G1 X134.419 Y113.17 E12.41127
G1 X75.623 Y113.169 E15.14906
G1 X74.927 Y113.159 E15.18147
G1 X74.246 Y113.11 E15.21326
G1 X73.575 Y112.981 E15.24508
G1 X72.923 Y112.774 E15.27693
G1 X72.301 Y112.493 E15.30872
G1 X71.715 Y112.141 E15.34055
G1 X71.175 Y111.723 E15.37234
G1 X70.687 Y111.245 E15.40415
G1 X70.258 Y110.713 E15.43597
G1 X69.894 Y110.135 E15.46778
G1 X69.6 Y109.518 E15.49961
G1 X69.381 Y108.871 E15.53141
G1 X69.238 Y108.203 E15.56322
G1 X69.166 Y107.422 E15.59974
M204 S3000
M205 X10 Y10
G0 F3000 X69.733 Y107.177
M204 S1800
M205 X8 Y8
G1 F2400 X69.761 Y106.176 E15.64637
G1 X69.799 Y105.259 E15.68911
G1 X69.817 Y104.011 E15.74723
G1 X69.827 Y103.88 E15.75334
G1 X69.845 Y102.607 E15.81263
G1 X69.894 Y101.959 E15.84289
G1 X70.022 Y101.322 E15.87314
G1 X70.228 Y100.706 E15.90338
G1 X70.507 Y100.12 E15.93361
G1 X70.857 Y99.572 E15.96388
G1 X71.271 Y99.072 E15.99411
G1 X71.744 Y98.626 E16.02438
G1 X72.267 Y98.242 E16.0546
G1 X72.834 Y97.924 E16.08487
G1 X73.436 Y97.679 E16.11513
G1 X74.063 Y97.51 E16.14537
G1 X75.071 Y97.393 E16.19262
G1 X134.24 Y97.39 E18.94778
G1 X135.015 Y97.401 E18.98387
G1 X135.662 Y97.45 E19.01408
G1 X136.299 Y97.578 E19.04433
G1 X136.915 Y97.784 E19.07458
G1 X137.502 Y98.064 E19.10486
G1 X138.049 Y98.413 E19.13508
G1 X138.55 Y98.827 E19.16534
G1 X138.995 Y99.3 E19.19558
G1 X139.38 Y99.824 E19.22586
G1 X139.697 Y100.391 E19.25611
G1 X139.942 Y100.992 E19.28633
G1 X140.111 Y101.619 E19.31656
G1 X140.229 Y102.626 E19.36377
G1 X140.229 Y104.327 E19.44298
G1 X140.254 Y106.532 E19.54566
G1 X140.269 Y107.202 E19.57687
G1 X140.243 Y107.851 E19.60711
G1 X140.138 Y108.492 E19.63736
G1 X139.955 Y109.115 E19.66759
G1 X139.697 Y109.712 E19.69788
G1 X139.368 Y110.271 E19.72808
G1 X138.972 Y110.787 E19.75837
G1 X138.517 Y111.25 E19.78859
G1 X138.007 Y111.653 E19.81886
G1 X137.452 Y111.991 E19.84912
G1 X136.86 Y112.258 E19.87936
G1 X136.24 Y112.45 E19.90958
G1 X135.6 Y112.565 E19.93986
G1 X135.082 Y112.599 E19.96403
G1 X134.419 Y112.61 E19.99491
G1 X75.631 Y112.609 E22.73232
G1 X74.935 Y112.599 E22.76474
G1 X74.287 Y112.55 E22.79499
G1 X73.651 Y112.422 E22.8252
G1 X73.034 Y112.216 E22.85549
G1 X72.448 Y111.936 E22.88573
G1 X71.901 Y111.587 E22.91595
G1 X71.4 Y111.172 E22.94624
G1 X70.955 Y110.7 E22.97645
G1 X70.57 Y110.176 E23.00672
G1 X70.253 Y109.609 E23.03697
G1 X70.008 Y109.008 E23.06719
G1 X69.839 Y108.38 E23.09748
G1 X69.748 Y107.737 E23.12771
G1 X69.733 Y107.177 E23.1538
M204 S3000
M205 X10 Y10
G1 F2400 E17.1538
;MESH:trns_1.stl
G0 F3000 X75.503 Y106.573
G0 X75.62 Y107.278
M204 S1800
M205 X8 Y8
;TYPE:WALL-OUTER
G1 F2400 E23.1538
G1 F2470.6 X76.053 Y107.243 E23.16608
M204 S3000
M205 X10 Y10
G1 F2400 E17.16608
G0 F3000 X78.6 Y106.798
G0 X131.879 Y105.119
M204 S1800
M205 X8 Y8
;TYPE:WALL-INNER
G1 F2400 E23.16608
G1 F1500 X132.429 Y104.889 E23.19384
G1 F1494.7 X132.984 Y104.739 E23.22071
G1 F1481.5 X133.539 Y104.588 E23.24782
G1 F1460.9 X133.539 Y104.08 E23.27211
G1 X132.931 Y104.076 E23.30118
G1 F1486.7 X132.323 Y104.071 E23.32975
G1 F1500 X78.155 Y104.073 E25.85204
G1 F1433.4 X77.479 Y104.1 E25.885
G1 F1400 X76.519 Y104.065 E25.93293
G1 F1455.8 X76.519 Y104.615 E25.95932
G1 F1426.1 X77.437 Y104.709 E26.00451
G1 F1402.3 X78.213 Y104.89 E26.0442
G1 F1466 X78.623 Y105.035 E26.06492
G1 F1500 X79.19 Y105.411 E26.0966
G1 X79.349 Y105.588 E26.10768
G1 X79.416 Y105.93 E26.1239
G1 X131.117 Y105.929 E28.53132
G1 X131.246 Y105.613 E28.54721
G1 X131.539 Y105.34 E28.56586
G1 X131.879 Y105.119 E28.58474
M204 S3000
M205 X10 Y10
G1 F2400 E22.58474
G0 F3000 X133.168 Y105.73
G0 X133.56 Y107.214
M204 S1800
M205 X8 Y8
;TYPE:WALL-OUTER
G1 F2400 E28.58474
G1 F2470.6 X134.321 Y107.279 E28.60633
M204 S3000
M205 X10 Y10
G1 F2400 E22.60633
G0 F3000 X131.862 Y106.75
G0 X78.821 Y105.749
G1 F2400 E28.60633
G0 F3000 X78.776 Y105.789
M204 S1800
M205 X8 Y8
;TYPE:WALL-INNER
G1 F1500 X78.915 Y105.942 E28.61596
G1 X79.023 Y106.49 E28.64197
G1 X131.46 Y106.489 E31.08365
G1 X131.667 Y105.982 E31.10915
G1 X132.113 Y105.628 E31.13567
G1 X132.572 Y105.431 E31.15893
G1 X133.396 Y105.216 E31.19858
G1 X134.109 Y105.081 E31.23237
G1 X134.109 Y103.51 E31.30552
G1 X75.955 Y103.514 E34.01342
G1 X75.955 Y105.12 E34.0882
G1 X76.859 Y105.219 E34.13054
G1 X77.355 Y105.289 E34.15387
G1 X78.038 Y105.422 E34.18627
G1 X78.437 Y105.563 E34.20598
G1 X78.776 Y105.789 E34.22495
M204 S3000
M205 X10 Y10
G1 F2400 E28.22495
G0 F3000 X78.821 Y105.749
G0 X76.791 Y105.636
G0 X75.62 Y107.278
M204 S1800
M205 X8 Y8
;TYPE:WALL-OUTER
G1 F2400 E34.22495
G1 F2470.6 X75.611 Y107.279 E34.2252
G1 X75.62 Y107.278 E34.22546
M204 S3000
M205 X10 Y10
G1 F2400 E28.22546
G0 F3000 X78.6 Y106.798
G0 X131.677 Y105.888
G1 F2400 E34.22546
G0 F3000 X132.088 Y106.352
M204 S1800
M205 X8 Y8
G1 F1500 X132.347 Y106.137 E34.24113
G1 X132.714 Y105.973 E34.25985
G1 X133.501 Y105.766 E34.29774
G1 X134.669 Y105.543 E34.35311
G1 X134.669 Y102.95 E34.47385
G1 X75.395 Y102.954 E37.2339
G1 X75.394 Y105.623 E37.35818
G1 X76.781 Y105.774 E37.42314
G1 X77.277 Y105.844 E37.44647
G1 X77.905 Y105.969 E37.47629
G1 X78.25 Y106.091 E37.49333
G1 X78.481 Y106.296 E37.50771
G1 X78.532 Y106.555 E37.52
G1 X78.401 Y106.766 E37.53156
G1 X78.12 Y106.953 E37.54728
G1 X77.814 Y107.049 E37.56221
G1 X132.405 Y107.049 E40.1042
G1 X132.268 Y106.979 E40.11136
G1 X132.082 Y106.793 E40.12361
G1 X132.015 Y106.594 E40.13339
G1 X132.088 Y106.352 E40.14516
M204 S3000
M205 X10 Y10
G0 F3000 X132.242 Y106.225
G0 X131.826 Y105.756
G0 X79.132 Y104.668
M204 S1800
M205 X8 Y8
;TYPE:SKIN
G1 F1255.6 X79.57 Y104.96 E40.17444
G1 X79.807 Y105.21 E40.1936
G1 X79.866 Y105.336 E40.20134
G1 X130.733 Y105.334 E43.03095
G1 X130.799 Y105.219 E43.03833
G1 X131.129 Y104.91 E43.06348
G1 X131.493 Y104.665 E43.08788
G1 X79.132 Y104.668 E46.0006
M204 S3000
M205 X10 Y10
;MESH:NONMESH
G0 F600 X79.132 Y104.668 Z0.4
G0 F3000 X79.039 Y105.84
;TIME_ELAPSED:43.527202
;LAYER:1
M106 S127.5
M204 S1800
M205 X8 Y8
;TYPE:WALL-INNER
;MESH:trns_1.stl
G1 F2250 X79.135 Y106.33 E46.01721
G1 X131.362 Y106.329 E47.75428
G1 X131.547 Y105.877 E47.77053
G1 X131.803 Y105.64 E47.78213
G1 X132.046 Y105.483 E47.79175
G1 X132.531 Y105.276 E47.80929
G1 X133.299 Y105.074 E47.8357
G1 X133.949 Y104.948 E47.85773
G1 X133.949 Y103.67 E47.90023
G1 X76.116 Y103.675 E49.82377
G1 X76.115 Y104.977 E49.86707
G1 X76.881 Y105.061 E49.8927
G1 X77.377 Y105.131 E49.90936
G1 X78.003 Y105.252 E49.93057
G1 X78.49 Y105.412 E49.94762
G1 X78.895 Y105.681 E49.96379
G1 X79.039 Y105.84 E49.97092
M204 S3000
M205 X10 Y10
G0 F4500 X78.599 Y105.951
M204 S1800
M205 X8 Y8
G1 F2250 X78.729 Y106.093 E49.97733
G1 X78.838 Y106.649 E49.99617
G1 X78.804 Y106.729 E49.99906
G1 X131.747 Y106.73 E51.75995
G1 X131.699 Y106.504 E51.76764
G1 X131.847 Y106.141 E51.78068
G1 X132.213 Y105.846 E51.79631
G1 X132.633 Y105.663 E51.81155
G1 X133.401 Y105.461 E51.83796
G1 X134.349 Y105.281 E51.87005
G1 X134.349 Y103.27 E51.93694
G1 X75.715 Y103.274 E53.88712
G1 X75.714 Y105.34 E53.95583
G1 X76.825 Y105.457 E53.99299
G1 X77.321 Y105.527 E54.00965
G1 X77.973 Y105.654 E54.03174
G1 X78.357 Y105.79 E54.04529
G1 X78.599 Y105.951 E54.05496
M204 S3000
M205 X10 Y10
G0 F4500 X78.356 Y106.699
M204 S1800
M205 X8 Y8
;TYPE:WALL-OUTER
G1 F2250 X78.016 Y106.913 E54.06832
G1 X77.204 Y107.129 E54.09627
G1 X132.662 Y107.13 E55.94081
G1 F2432.4 X133.56 Y107.214 E55.96856
G1 X132.667 Y107.087 E55.99631
G1 F2250 X132.305 Y106.908 E56.00974
G1 X132.143 Y106.741 E56.01748
G1 X132.095 Y106.598 E56.02249
G1 X132.148 Y106.405 E56.02915
G1 X132.331 Y106.241 E56.03732
G1 X132.735 Y106.05 E56.05219
G1 X133.516 Y105.845 E56.07904
G1 X134.749 Y105.609 E56.1208
G1 X134.749 Y102.87 E56.2119
G1 X75.315 Y102.874 E58.18868
G1 X75.314 Y105.708 E58.28294
G1 X75.851 Y105.753 E58.30086
G1 X76.769 Y105.853 E58.33157
G1 X77.276 Y105.925 E58.34861
G1 X77.85 Y106.037 E58.36806
G1 X78.223 Y106.167 E58.3812
G1 X78.419 Y106.346 E58.39002
G1 X78.455 Y106.532 E58.39633
G1 X78.356 Y106.699 E58.40278
M204 S3000
M205 X10 Y10
G0 F4500 X78.187 Y106.805
G1 F2400 E52.40278
G0 F4500 X78.463 Y106.902
G0 X75.639 Y107.279
M204 S1800
M205 X8 Y8
G1 F2400 E58.40278
G1 F2647.1 X75.63 Y107.28 E58.40304
G1 X75.639 Y107.279 E58.40329
M204 S3000
M205 X10 Y10
G1 F2400 E52.40329
G0 F4500 X75.639 Y107.995
G0 X133.56 Y107.995
G0 X133.56 Y107.214
M204 S1800
M205 X8 Y8
G1 F2400 E58.40329
G1 F2647.1 X134.321 Y107.279 E58.42489
M204 S3000
M205 X10 Y10
G1 F2400 E52.42489
G0 F4500 X133.991 Y105.551
G0 X131.864 Y105.149
M204 S1800
M205 X8 Y8
;TYPE:SKIN
G1 F2400 E58.42489
G1 F1350 X132.411 Y104.915 E58.44468
G1 X133.568 Y104.614 E58.48444
G1 X133.568 Y104.051 E58.50316
G1 X78.153 Y104.054 E60.34627
G1 F1134.5 X77.505 Y104.131 E60.3721
G1 F998.2 X76.549 Y104.098 E60.41513
G1 F1042.5 X76.548 Y104.587 E60.43619
G1 F1018.9 X77.453 Y104.681 E60.47629
G1 F1050.6 X78.046 Y104.87 E60.50289
G1 F1232.9 X78.639 Y105.06 E60.52557
G1 F1350 X79.14 Y105.395 E60.54562
G1 X79.33 Y105.597 E60.55484
G1 X79.424 Y105.95 E60.56699
G1 X131.118 Y105.949 E62.28634
G1 X131.263 Y105.622 E62.29824
G1 X131.574 Y105.336 E62.31229
G1 X131.864 Y105.149 E62.32377
M204 S3000
M205 X10 Y10
G0 F4500 X133.337 Y104.25
M204 S1800
M205 X8 Y8
G1 F1350 X133.045 Y104.542 E62.3375
M204 S3000
M205 X10 Y10
G0 F4500 X132.771 Y104.25
M204 S1800
M205 X8 Y8
G1 F1350 X132.254 Y104.767 E62.36182
M204 S3000
M205 X10 Y10
G0 F4500 X132.205 Y104.25
M204 S1800
M205 X8 Y8
G1 F1350 X130.707 Y105.749 E62.4323
M204 S3000
M205 X10 Y10
G0 F4500 X130.141 Y105.749
M204 S1800
M205 X8 Y8
G1 F1350 X131.639 Y104.25 E62.50279
M204 S3000
M205 X10 Y10
G0 F4500 X131.074 Y104.25
M204 S1800
M205 X8 Y8
G1 F1350 X129.575 Y105.749 E62.5733
M204 S3000
M205 X10 Y10
G0 F4500 X129.01 Y105.749
M204 S1800
M205 X8 Y8
G1 F1350 X130.508 Y104.25 E62.64378
M204 S3000
M205 X10 Y10
G0 F4500 X129.942 Y104.25
M204 S1800
M205 X8 Y8
G1 F1350 X128.444 Y105.749 E62.71427
M204 S3000
M205 X10 Y10
G0 F4500 X127.878 Y105.749
M204 S1800
M205 X8 Y8
G1 F1350 X129.377 Y104.25 E62.78478
M204 S3000
M205 X10 Y10
G0 F4500 X128.811 Y104.25
M204 S1800
M205 X8 Y8
G1 F1350 X127.313 Y105.749 E62.85526
M204 S3000
M205 X10 Y10
G0 F4500 X126.747 Y105.749
M204 S1800
M205 X8 Y8
G1 F1350 X128.245 Y104.25 E62.92575
M204 S3000
M205 X10 Y10
G0 F4500 X127.68 Y104.25
M204 S1800
M205 X8 Y8
G1 F1350 X126.181 Y105.749 E62.99625
M204 S3000
M205 X10 Y10
G0 F4500 X125.616 Y105.749
M204 S1800
M205 X8 Y8
G1 F1350 X127.114 Y104.25 E63.06674
M204 S3000
M205 X10 Y10
G0 F4500 X126.548 Y104.25
M204 S1800
M205 X8 Y8
G1 F1350 X125.05 Y105.749 E63.13722
M204 S3000
M205 X10 Y10
G0 F4500 X124.484 Y105.749
M204 S1800
M205 X8 Y8
G1 F1350 X125.983 Y104.25 E63.20773
M204 S3000
M205 X10 Y10
G0 F4500 X125.417 Y104.25
M204 S1800
M205 X8 Y8
G1 F1350 X123.919 Y105.749 E63.27822
M204 S3000
M205 X10 Y10
G0 F4500 X123.353 Y105.749
M204 S1800
M205 X8 Y8
G1 F1350 X124.851 Y104.25 E63.3487
M204 S3000
M205 X10 Y10
G0 F4500 X124.286 Y104.25
M204 S1800
M205 X8 Y8
G1 F1350 X122.787 Y105.749 E63.41921
M204 S3000
M205 X10 Y10
G0 F4500 X122.221 Y105.749
M204 S1800
M205 X8 Y8
G1 F1350 X123.72 Y104.25 E63.48972
M204 S3000
M205 X10 Y10
G0 F4500 X123.154 Y104.25
M204 S1800
M205 X8 Y8
G1 F1350 X121.656 Y105.749 E63.5602
M204 S3000
M205 X10 Y10
G0 F4500 X121.09 Y105.749
M204 S1800
M205 X8 Y8
G1 F1350 X122.588 Y104.25 E63.63069
M204 S3000
M205 X10 Y10
G0 F4500 X122.023 Y104.25
M204 S1800
M205 X8 Y8
G1 F1350 X120.524 Y105.749 E63.7012
M204 S3000
M205 X10 Y10
G0 F4500 X119.959 Y105.749
M204 S1800
M205 X8 Y8
G1 F1350 X121.457 Y104.25 E63.77168
M204 S3000
M205 X10 Y10
G0 F4500 X120.891 Y104.25
M204 S1800
M205 X8 Y8
G1 F1350 X119.393 Y105.749 E63.84217
M204 S3000
M205 X10 Y10
G0 F4500 X118.827 Y105.749
M204 S1800
M205 X8 Y8
G1 F1350 X120.326 Y104.25 E63.91267
M204 S3000
M205 X10 Y10
