;FLAVOR:Marlin
;TIME:264
;Filament used: 0.231216m
;Layer height: 0.2
;MINX:48.612
;MINY:94.188
;MINZ:0.2
;MAXX:161.387
;MAXY:115.812
;MAXZ:0.6
;Generated with Cura_SteamEngine main
M140 S60
M105
M190 S60
M104 S200
M105
M109 S200
M82 ;absolute extrusion mode
G21 ;metric values
G90 ;absolute positioning
M82 ;set extruder to absolute mode
M107 ;start with the fan off
G28 X0 Y0 ;move X/Y to min endstops
G28 Z0 ;move Z to min endstops
G1 Z15.0 F100 ;move the platform down 15mm
G92 E0 ;zero the extruded length
G1 F200 E3 ;extrude 3mm of feed stock
G92 E0 ;zero the extruded length again
G1 F100
G0 Y20 F100
M117 Printing...
G5
G92 E0
G92 E0
G1 F2400 E-6
;LAYER_COUNT:3
;LAYER:0
M107
M204 S3000
M205 X10 Y10
G1 F600 Z0.275
G0 F3000 X52.072 Y94.912 Z0.275
G1 F600 Z0.2
G0 F3000 X48.612 Y100.753
M204 S1800
M205 X8 Y8
;TYPE:SKIRT
G1 F2400 E0
G1 X48.635 Y100.039 E0.03326
G1 X48.737 Y99.331 E0.06657
G1 X48.917 Y98.639 E0.09987
G1 X49.174 Y97.971 E0.13319
G1 X49.504 Y97.336 E0.16652
G1 X49.902 Y96.742 E0.19981
G1 X50.364 Y96.196 E0.23311
G1 X50.884 Y95.705 E0.26642
G1 X51.456 Y95.275 E0.29974
G1 X52.072 Y94.912 E0.33303
G1 X52.725 Y94.62 E0.36634
G1 X53.406 Y94.402 E0.39963
G1 X54.108 Y94.262 E0.43297
G1 X54.904 Y94.199 E0.47015
G1 X55.615 Y94.188 E0.50326
G1 X154.385 Y94.189 E5.1024
G1 X155.081 Y94.199 E5.13482
G1 X155.794 Y94.249 E5.1681
G1 X156.498 Y94.378 E5.20142
G1 X157.182 Y94.586 E5.23471
G1 X157.84 Y94.868 E5.26805
G1 X158.461 Y95.222 E5.30133
G1 X159.039 Y95.643 E5.33463
G1 X159.567 Y96.126 E5.36795
G1 X160.038 Y96.665 E5.40128
G1 X160.445 Y97.252 E5.43454
G1 X160.784 Y97.882 E5.46785
G1 X161.051 Y98.546 E5.50118
G1 X161.242 Y99.235 E5.53447
G1 X161.355 Y99.941 E5.56776
G1 X161.387 Y100.77 E5.6064
G1 X161.332 Y102.514 E5.68764
G1 X161.299 Y105.184 E5.81198
G1 X161.341 Y107.84 E5.93567
G1 X161.368 Y108.497 E5.96629
G1 X161.387 Y109.238 E6.0008
G1 X161.365 Y109.953 E6.03411
G1 X161.264 Y110.661 E6.06741
G1 X161.084 Y111.353 E6.10071
G1 X160.828 Y112.021 E6.13402
G1 X160.5 Y112.656 E6.1673
G1 X160.102 Y113.251 E6.20063
G1 X159.641 Y113.798 E6.23394
G1 X159.121 Y114.289 E6.26724
G1 X158.55 Y114.72 E6.30056
G1 X157.934 Y115.084 E6.33387
G1 X157.282 Y115.377 E6.36716
G1 X156.601 Y115.596 E6.40047
G1 X155.9 Y115.737 E6.43376
G1 X155.088 Y115.801 E6.47169
G1 X154.344 Y115.812 E6.50634
G1 X55.616 Y115.811 E11.10353
G1 X54.919 Y115.801 E11.13598
G1 X54.206 Y115.751 E11.16927
G1 X53.502 Y115.622 E11.20259
G1 X52.818 Y115.414 E11.23588
G1 X52.16 Y115.132 E11.26922
G1 X51.539 Y114.778 E11.3025
G1 X50.961 Y114.357 E11.3358
G1 X50.433 Y113.874 E11.36912
G1 X49.963 Y113.336 E11.40238
G1 X49.555 Y112.748 E11.43571
G1 X49.216 Y112.118 E11.46902
G1 X48.949 Y111.454 E11.50235
G1 X48.758 Y110.765 E11.53564
G1 X48.645 Y110.059 E11.56893
G1 X48.613 Y109.23 E11.60756
G1 X48.643 Y108.113 E11.65959
G1 X48.666 Y107.558 E11.68546
G1 X48.703 Y104.916 E11.80849
G1 X48.664 Y102.281 E11.9312
G1 X48.612 Y100.753 E12.0024
M204 S3000
M205 X10 Y10
G0 F3000 X49.172 Y100.74
M204 S1800
M205 X8 Y8
G1 F2400 X49.195 Y100.057 E12.03422
G1 X49.298 Y99.382 E12.06601
G1 X49.479 Y98.723 E12.09783
G1 X49.736 Y98.09 E12.12965
G1 X50.065 Y97.491 E12.16147
G1 X50.462 Y96.935 E12.19328
G1 X50.921 Y96.429 E12.22509
G1 X51.436 Y95.98 E12.25691
G1 X52 Y95.594 E12.28873
G1 X52.605 Y95.276 E12.32056
G1 X53.243 Y95.032 E12.35236
G1 X53.905 Y94.864 E12.38416
G1 X54.913 Y94.759 E12.43136
G1 X55.615 Y94.748 E12.46405
G1 X154.377 Y94.749 E17.06282
G1 X155.073 Y94.759 E17.09523
G1 X155.754 Y94.808 E17.12702
G1 X156.425 Y94.937 E17.15884
G1 X157.077 Y95.144 E17.19069
G1 X157.699 Y95.425 E17.22248
G1 X158.285 Y95.777 E17.25431
G1 X158.825 Y96.195 E17.2861
G1 X159.313 Y96.673 E17.31791
G1 X159.742 Y97.205 E17.34974
G1 X160.106 Y97.783 E17.38154
G1 X160.4 Y98.4 E17.41337
G1 X160.619 Y99.047 E17.44517
G1 X160.762 Y99.715 E17.47698
G1 X160.835 Y100.504 E17.51388
G1 X160.772 Y102.484 E17.60612
G1 X160.739 Y105.199 E17.73255
G1 X160.781 Y107.833 E17.85522
G1 X160.808 Y108.511 E17.88681
G1 X160.827 Y109.252 E17.92133
G1 X160.805 Y109.935 E17.95315
G1 X160.703 Y110.611 E17.98498
G1 X160.522 Y111.27 E18.01681
G1 X160.266 Y111.903 E18.0486
G1 X159.938 Y112.502 E18.0804
G1 X159.542 Y113.059 E18.11222
G1 X159.084 Y113.566 E18.14404
G1 X158.569 Y114.016 E18.17588
G1 X158.006 Y114.402 E18.20767
G1 X157.401 Y114.72 E18.23949
G1 X156.764 Y114.966 E18.27129
G1 X156.102 Y115.135 E18.3031
G1 X155.343 Y115.237 E18.33876
G1 X154.344 Y115.252 E18.38529
G1 X55.624 Y115.251 E22.9821
G1 X54.927 Y115.241 E23.01456
G1 X54.246 Y115.192 E23.04635
G1 X53.575 Y115.063 E23.07817
G1 X52.924 Y114.856 E23.10998
G1 X52.301 Y114.575 E23.1418
G1 X51.715 Y114.223 E23.17364
G1 X51.175 Y113.805 E23.20543
G1 X50.687 Y113.327 E23.23724
G1 X50.258 Y112.795 E23.26906
G1 X49.894 Y112.217 E23.30087
G1 X49.6 Y111.6 E23.3327
G1 X49.381 Y110.953 E23.3645
G1 X49.238 Y110.285 E23.39631
G1 X49.165 Y109.498 E23.43311
G1 X49.226 Y107.555 E23.52363
G1 X49.263 Y104.916 E23.64653
G1 X49.224 Y102.251 E23.77064
G1 X49.172 Y100.74 E23.84104
M204 S3000
M205 X10 Y10
G0 F3000 X49.732 Y100.726
M204 S1800
M205 X8 Y8
G1 F2400 X49.756 Y100.077 E23.87128
G1 X49.86 Y99.436 E23.90151
G1 X50.041 Y98.812 E23.93177
G1 X50.298 Y98.215 E23.96203
G1 X50.626 Y97.655 E23.99225
G1 X51.021 Y97.139 E24.02251
G1 X51.476 Y96.675 E24.05277
G1 X51.984 Y96.271 E24.08299
G1 X52.539 Y95.932 E24.11328
G1 X53.13 Y95.664 E24.14349
G1 X53.751 Y95.47 E24.17379
G1 X54.39 Y95.355 E24.20402
G1 X54.923 Y95.319 E24.2289
G1 X55.615 Y95.308 E24.26112
G1 X154.369 Y95.309 E28.85952
G1 X155.065 Y95.319 E28.89193
G1 X155.713 Y95.368 E28.92219
G1 X156.349 Y95.496 E28.9524
G1 X156.966 Y95.702 E28.98269
G1 X157.552 Y95.982 E29.01293
G1 X158.099 Y96.331 E29.04315
G1 X158.6 Y96.746 E29.07344
G1 X159.045 Y97.218 E29.10365
G1 X159.43 Y97.742 E29.13392
G1 X159.747 Y98.309 E29.16417
G1 X159.992 Y98.91 E29.19439
G1 X160.161 Y99.538 E29.22468
G1 X160.252 Y100.181 E29.25491
G1 X160.267 Y100.74 E29.28095
G1 X160.235 Y101.924 E29.33611
G1 X160.212 Y102.491 E29.36253
G1 X160.179 Y105.201 E29.48873
G1 X160.221 Y107.864 E29.61274
G1 X160.248 Y108.526 E29.64359
G1 X160.267 Y109.267 E29.67811
G1 X160.244 Y109.916 E29.70835
G1 X160.141 Y110.557 E29.73858
G1 X159.96 Y111.181 E29.76883
G1 X159.704 Y111.778 E29.79908
G1 X159.377 Y112.339 E29.82932
G1 X158.983 Y112.856 E29.85958
G1 X158.528 Y113.32 E29.88984
G1 X158.02 Y113.725 E29.9201
G1 X157.467 Y114.065 E29.95032
G1 X156.875 Y114.334 E29.9806
G1 X156.255 Y114.528 E30.01085
G1 X155.616 Y114.645 E30.0411
G1 X155.071 Y114.681 E30.06653
G1 X154.344 Y114.692 E30.10039
G1 X55.632 Y114.691 E34.69683
G1 X54.935 Y114.681 E34.72929
G1 X54.288 Y114.632 E34.75951
G1 X53.651 Y114.504 E34.78976
G1 X53.035 Y114.298 E34.82001
G1 X52.448 Y114.018 E34.85029
G1 X51.901 Y113.669 E34.8805
G1 X51.4 Y113.254 E34.91079
G1 X50.955 Y112.782 E34.941
G1 X50.57 Y112.258 E34.97128
G1 X50.253 Y111.691 E35.00153
G1 X50.008 Y111.09 E35.03175
G1 X49.839 Y110.463 E35.06199
G1 X49.748 Y109.819 E35.09227
G1 X49.733 Y109.26 E35.11831
G1 X49.786 Y107.587 E35.19625
G1 X49.823 Y104.916 E35.32064
G1 X49.784 Y102.258 E35.44442
G1 X49.746 Y101.304 E35.48887
G1 X49.732 Y100.726 E35.5158
M204 S3000
M205 X10 Y10
G1 F2400 E29.5158
;MESH:trns_2.stl
G0 F3000 X55.786 Y108.651
G0 X55.87 Y109.36
M204 S1800
M205 X8 Y8
;TYPE:WALL-OUTER
G1 F2400 E35.5158
G1 F2470.6 X57.016 Y109.286 E35.54826
G1 F2252 X57.611 Y109.239 E35.56677
G1 F1913.4 X58.206 Y109.191 E35.58856
G1 F1663.4 X58.802 Y109.143 E35.61367
M204 S3000
M205 X10 Y10
G1 F2400 E29.61367
G0 F3000 X60.083 Y109.011
G0 X61.062 Y108.801
G0 X62.238 Y108.405
G0 X62.994 Y108.072
G0 X63.848 Y107.402
G0 X64.959 Y105.219
M204 S1800
M205 X8 Y8
;TYPE:WALL-INNER
G1 F2400 E35.61367
G1 F1500 X65.145 Y105.714 E35.63829
G1 X65.213 Y106.112 E35.65709
G1 X65.193 Y106.753 E35.68696
G1 X65.098 Y107.132 E35.70515
G1 X64.829 Y107.685 E35.73379
G1 X64.581 Y108.011 E35.75286
G1 X145.419 Y108.011 E39.51701
G1 X145.171 Y107.685 E39.53609
G1 X144.902 Y107.132 E39.56472
G1 X144.807 Y106.753 E39.58292
G1 X144.787 Y106.112 E39.61278
G1 X144.855 Y105.714 E39.63158
G1 X145.041 Y105.219 E39.6562
G1 X145.393 Y104.624 E39.68839
G1 X145.929 Y103.985 E39.72723
G1 X146.707 Y103.339 E39.77432
G1 X147.179 Y102.994 E39.80154
G1 X147.765 Y102.601 E39.8344
G1 X148.768 Y101.989 E39.88911
G1 X61.233 Y101.989 E43.9651
G1 X62.187 Y102.572 E44.01716
G1 X62.771 Y102.958 E44.04976
G1 X63.297 Y103.344 E44.08014
G1 X64.069 Y103.983 E44.1268
G1 X64.607 Y104.624 E44.16577
G1 X64.959 Y105.219 E44.19796
M204 S3000
M205 X10 Y10
G0 F3000 X64.694 Y106.701
G0 X64.636 Y106.695
M204 S1800
M205 X8 Y8
G1 F1500 X64.579 Y106.922 E44.20886
G1 X64.376 Y107.355 E44.23113
G1 X64.094 Y107.72 E44.25261
G1 X63.745 Y108.039 E44.27462
G1 X63.257 Y108.379 E44.30232
G1 X62.857 Y108.571 E44.32298
G1 X147.143 Y108.571 E48.24769
G1 X146.743 Y108.379 E48.26835
G1 X146.255 Y108.039 E48.29604
G1 X145.906 Y107.72 E48.31806
G1 X145.624 Y107.355 E48.33954
G1 X145.421 Y106.922 E48.3618
G1 X145.364 Y106.695 E48.3727
G1 X145.341 Y106.2 E48.39578
G1 X145.399 Y105.846 E48.41248
G1 X145.559 Y105.432 E48.43315
G1 X145.849 Y104.952 E48.45926
G1 X146.325 Y104.385 E48.49373
G1 X147.038 Y103.791 E48.53695
G1 X147.539 Y103.426 E48.56581
G1 X148.076 Y103.067 E48.59589
G1 X148.728 Y102.669 E48.63146
G1 X149.41 Y102.283 E48.66795
G1 X150.149 Y101.891 E48.7069
G1 X151.074 Y101.429 E48.75504
G1 X58.93 Y101.429 E53.04565
G1 X59.869 Y101.9 E53.09457
G1 X60.612 Y102.296 E53.13378
G1 X61.297 Y102.685 E53.17046
G1 X61.924 Y103.068 E53.20467
G1 X62.494 Y103.448 E53.23657
G1 X62.965 Y103.795 E53.26381
G1 X63.674 Y104.384 E53.30673
G1 X64.151 Y104.952 E53.34127
G1 X64.441 Y105.432 E53.36738
G1 X64.601 Y105.846 E53.38805
G1 X64.659 Y106.2 E53.40475
G1 X64.636 Y106.695 E53.42782
M204 S3000
M205 X10 Y10
G0 F3000 X64.079 Y106.636
M204 S1800
M205 X8 Y8
;TYPE:WALL-OUTER
G1 F1500 X63.957 Y106.966 E53.44421
G1 X63.741 Y107.277 E53.46184
G1 X63.425 Y107.579 E53.48219
G1 X62.889 Y107.946 E53.51244
G1 X62.172 Y108.26 E53.54889
G1 X61.622 Y108.461 E53.57615
G1 X61.01 Y108.65 E53.60598
G1 X60.338 Y108.828 E53.63835
G1 X59.591 Y108.999 E53.67403
G1 F1530.1 X58.803 Y109.142 E53.71059
G1 X59.603 Y109.131 E53.74712
G1 F1500 X150.383 Y109.132 E57.97421
G1 F1532.8 X151.208 Y109.143 E58.01181
G1 X150.387 Y108.994 E58.04983
G1 F1500 X149.653 Y108.826 E58.08489
G1 X148.976 Y108.647 E58.1175
G1 X148.362 Y108.455 E58.14745
G1 X147.812 Y108.253 E58.17474
G1 X147.111 Y107.946 E58.21037
G1 X146.575 Y107.579 E58.24062
G1 X146.259 Y107.277 E58.26097
G1 X146.043 Y106.966 E58.2786
G1 X145.921 Y106.636 E58.29499
G1 X145.894 Y106.287 E58.31129
G1 X145.943 Y105.979 E58.32581
G1 X146.077 Y105.644 E58.34261
G1 X146.293 Y105.297 E58.36164
G1 X146.74 Y104.768 E58.39389
G1 X147.368 Y104.243 E58.43201
G1 X147.84 Y103.898 E58.45923
G1 X148.397 Y103.527 E58.49039
G1 X149.004 Y103.157 E58.52349
G1 X149.672 Y102.778 E58.55926
G1 X150.401 Y102.391 E58.59769
G1 X151.186 Y101.995 E58.63863
G1 X152.029 Y101.591 E58.68216
G1 X152.929 Y101.178 E58.72827
G1 X153.632 Y100.868 E58.76404
G1 X56.371 Y100.869 E63.29292
G1 X57.076 Y101.18 E63.3288
G1 X57.977 Y101.593 E63.37495
G1 X58.821 Y101.997 E63.41852
G1 X59.606 Y102.394 E63.45949
G1 X60.336 Y102.783 E63.498
G1 X61.005 Y103.163 E63.53383
G1 X61.614 Y103.534 E63.56703
G1 X62.162 Y103.899 E63.59769
G1 X62.646 Y104.256 E63.6257
G1 X63.26 Y104.767 E63.66289
G1 X63.707 Y105.297 E63.69518
G1 X63.923 Y105.644 E63.71421
G1 X64.057 Y105.979 E63.73101
G1 X64.106 Y106.287 E63.74553
G1 X64.079 Y106.636 E63.76183
M204 S3000
M205 X10 Y10
G0 F3000 X64.01 Y106.824
G1 F2400 E57.76183
G0 F3000 X64.586 Y107.058
G0 X62.994 Y108.072
G0 X62.251 Y108.375
G0 X61.056 Y108.782
G0 X60.748 Y107.742
G0 X55.942 Y108.632
G0 X55.87 Y109.36
M204 S1800
M205 X8 Y8
G1 F2400 E63.76183
G1 F2470.6 X55.861 Y109.361 E63.76209
G1 X55.87 Y109.36 E63.76235
M204 S3000
M205 X10 Y10
G1 F2400 E57.76235
G0 F3000 X55.942 Y108.632
G0 X54.312 Y108.835
G0 X54.384 Y110.066
G0 X151.208 Y110.077
G0 X151.208 Y109.143
M204 S1800
M205 X8 Y8
G1 F2400 E63.76235
G1 F1670 X151.8 Y109.19 E63.78718
G1 F1917.8 X152.392 Y109.238 E63.80882
G1 F2258.1 X152.985 Y109.286 E63.82722
G1 F2470.6 X154.126 Y109.36 E63.85954
M204 S3000
M205 X10 Y10
G1 F2400 E57.85954
G0 F3000 X154.058 Y108.632
G0 X147.157 Y106.832
G0 X146.472 Y107.675
G0 X144.33 Y105.583
M204 S1800
M205 X8 Y8
;TYPE:SKIN
G1 F2400 E63.85954
G1 F1500 X144.54 Y105.016 E63.8877
G1 X144.936 Y104.335 E63.92438
G1 X145.552 Y103.598 E63.96911
G1 X146.286 Y102.98 E64.01378
G1 X146.899 Y102.531 E64.04917
G1 X63.099 Y102.528 E67.95125
G1 X63.629 Y102.918 E67.98189
G1 X64.426 Y103.576 E68.03001
G1 X64.975 Y104.222 E68.06949
G1 X65.394 Y104.847 E68.10452
G1 X65.67 Y105.581 E68.14104
G1 X65.746 Y106.021 E68.16183
G1 X65.731 Y106.827 E68.19937
G1 X65.563 Y107.471 E68.23036
G1 X144.437 Y107.471 E71.90306
G1 X144.269 Y106.827 E71.93405
G1 X144.254 Y106.028 E71.97127
G1 X144.33 Y105.583 E71.99229
M204 S3000
M205 X10 Y10
G0 F3000 X145.793 Y103.027
M204 S1800
M205 X8 Y8
G1 F1500 X145.577 Y102.811 E72.00651
M204 S3000
M205 X10 Y10
G0 F3000 X145.363 Y103.389
M204 S1800
M205 X8 Y8
G1 F1500 X144.785 Y102.811 E72.04457
M204 S3000
M205 X10 Y10
G0 F3000 X143.993 Y102.811
M204 S1800
M205 X8 Y8
G1 F1500 X144.998 Y103.816 E72.11075
M204 S3000
M205 X10 Y10
G0 F3000 X144.652 Y104.262
M204 S1800
M205 X8 Y8
G1 F1500 X143.201 Y102.811 E72.2063
M204 S3000
M205 X10 Y10
G0 F3000 X142.409 Y102.811
M204 S1800
M205 X8 Y8
G1 F1500 X144.36 Y104.762 E72.33478
M204 S3000
M205 X10 Y10
G0 F3000 X144.128 Y105.322
M204 S1800
M205 X8 Y8
G1 F1500 X141.617 Y102.811 E72.50013
M204 S3000
M205 X10 Y10
G0 F3000 X140.825 Y102.811
M204 S1800
M205 X8 Y8
G1 F1500 X143.98 Y105.966 E72.7079
M204 S3000
M205 X10 Y10
G0 F3000 X143.986 Y106.764
M204 S1800
M205 X8 Y8
G1 F1500 X140.033 Y102.811 E72.96821
M204 S3000
M205 X10 Y10
G0 F3000 X139.241 Y102.811
M204 S1800
M205 X8 Y8
G1 F1500 X143.619 Y107.189 E73.25651
M204 S3000
M205 X10 Y10
G0 F3000 X142.827 Y107.189
M204 S1800
M205 X8 Y8
G1 F1500 X138.449 Y102.811 E73.54481
M204 S3000
M205 X10 Y10
G0 F3000 X137.657 Y102.811
M204 S1800
M205 X8 Y8
G1 F1500 X142.035 Y107.189 E73.8331
M204 S3000
M205 X10 Y10
G0 F3000 X141.243 Y107.189
M204 S1800
M205 X8 Y8
G1 F1500 X136.865 Y102.811 E74.1214
M204 S3000
M205 X10 Y10
G0 F3000 X136.073 Y102.811
M204 S1800
M205 X8 Y8
G1 F1500 X140.451 Y107.189 E74.4097
M204 S3000
M205 X10 Y10
G0 F3000 X139.659 Y107.189
M204 S1800
M205 X8 Y8
G1 F1500 X135.281 Y102.811 E74.698
M204 S3000
M205 X10 Y10
G0 F3000 X134.489 Y102.811
M204 S1800
M205 X8 Y8
G1 F1500 X138.867 Y107.189 E74.9863
M204 S3000
M205 X10 Y10
G0 F3000 X138.076 Y107.189
M204 S1800
M205 X8 Y8
G1 F1500 X133.697 Y102.811 E75.27463
M204 S3000
M205 X10 Y10
G0 F3000 X132.905 Y102.811
M204 S1800
M205 X8 Y8
G1 F1500 X137.284 Y107.189 E75.56296
M204 S3000
M205 X10 Y10
G0 F3000 X136.492 Y107.189
M204 S1800
M205 X8 Y8
G1 F1500 X132.113 Y102.811 E75.8513
M204 S3000
M205 X10 Y10
G0 F3000 X131.321 Y102.811
M204 S1800
M205 X8 Y8
G1 F1500 X135.7 Y107.189 E76.13963
M204 S3000
M205 X10 Y10
G0 F3000 X134.908 Y107.189
M204 S1800
M205 X8 Y8
G1 F1500 X130.529 Y102.811 E76.42796
M204 S3000
M205 X10 Y10
G0 F3000 X129.737 Y102.811
M204 S1800
M205 X8 Y8
G1 F1500 X134.116 Y107.189 E76.71629
M204 S3000
M205 X10 Y10
G0 F3000 X133.324 Y107.189
M204 S1800
M205 X8 Y8
G1 F1500 X128.945 Y102.811 E77.00462
M204 S3000
M205 X10 Y10
G0 F3000 X128.153 Y102.811
M204 S1800
M205 X8 Y8
G1 F1500 X132.532 Y107.189 E77.29295
M204 S3000
M205 X10 Y10
G0 F3000 X131.74 Y107.189
M204 S1800
M205 X8 Y8
G1 F1500 X127.361 Y102.811 E77.58129
M204 S3000
M205 X10 Y10
G0 F3000 X126.569 Y102.811
M204 S1800
M205 X8 Y8
G1 F1500 X130.948 Y107.189 E77.86962
M204 S3000
M205 X10 Y10
G0 F3000 X130.156 Y107.189
M204 S1800
M205 X8 Y8
G1 F1500 X125.778 Y102.811 E78.15792
M204 S3000
M205 X10 Y10
G0 F3000 X124.985 Y102.81
M204 S1800
M205 X8 Y8
G1 F1500 X129.364 Y107.189 E78.44628
M204 S3000
M205 X10 Y10
G0 F3000 X128.572 Y107.189
M204 S1800
M205 X8 Y8
G1 F1500 X124.193 Y102.81 E78.73464
M204 S3000
M205 X10 Y10
G0 F3000 X123.401 Y102.81
M204 S1800
M205 X8 Y8
